;FLAVOR:Marlin
;TIME:5200
;Filament used: 3.52861m
;Layer height: 0.2
;MINX:37.051
;MINY:58.2
;MINZ:0.15
;MAXX:212.949
;MAXY:191.8
;MAXZ:7.35
;Generated with Cura_SteamEngine 5.2.1
M140 S60
M105
M190 S60
M104 S200
M105
M109 S200
M82 ;absolute extrusion mode
G28 
G1 Z15 F300
M107
G90
M82
M104 S215
M140 S55
G92 E0
M109 S215
M107
G0 X10 Y20 F6000
G1 Z0.8
G1 F300 X200 E40
G1 F1200 Z2
G92 E0
G28
G92 E0
G92 E0
G1 F2100 E-0.8
;LAYER_COUNT:32
;LAYER:0
M107
G1 F600 Z1.15
G0 F3600 X41.156 Y60.452 Z1.15
;TYPE:SKIRT
G1 F600 Z0.15
G1 F2100 E0
G1 F900 X41.839 Y59.992 E0.02054
G1 X42.369 Y59.718 E0.03542
G1 X43.125 Y59.359 E0.0563
G1 X43.589 Y59.166 E0.06884
G1 X44.352 Y58.871 E0.08924
G1 X45.065 Y58.68 E0.10766
G1 X45.944 Y58.475 E0.13017
G1 X46.557 Y58.361 E0.14572
G1 X47.531 Y58.213 E0.1703
G1 X48.364 Y58.2 E0.19108
G1 X201.659 Y58.2 E4.01504
G1 X202.591 Y58.214 E4.03829
G1 X203.453 Y58.346 E4.06005
G1 X204.222 Y58.487 E4.07955
G1 X204.914 Y58.65 E4.09728
G1 X205.569 Y58.823 E4.11418
G1 X206.048 Y58.976 E4.12673
G1 X207.024 Y59.38 E4.15308
G1 X207.65 Y59.677 E4.17036
G1 X208.248 Y59.985 E4.18714
G1 X208.842 Y60.381 E4.20495
G1 X209.617 Y61.036 E4.23026
G1 X210.083 Y61.535 E4.24729
G1 X210.681 Y62.301 E4.27153
G1 X211.157 Y62.992 E4.29246
G1 X211.488 Y63.501 E4.30761
G1 X211.751 Y63.998 E4.32164
G1 X212.065 Y64.746 E4.34187
G1 X212.298 Y65.385 E4.35884
G1 X212.502 Y66.098 E4.37734
G1 X212.669 Y66.746 E4.39403
G1 X212.798 Y67.509 E4.41333
G1 X212.923 Y68.396 E4.43568
G1 X212.949 Y69.704 E4.46831
G1 X212.949 Y187.908 E7.41692
G1 X212.939 Y188.635 E7.43506
G1 X212.892 Y189.138 E7.44766
G1 X212.766 Y189.628 E7.46028
G1 X212.565 Y190.092 E7.4729
G1 X212.293 Y190.518 E7.48551
G1 X211.958 Y190.897 E7.49812
G1 X211.567 Y191.217 E7.51073
G1 X211.131 Y191.472 E7.52333
G1 X210.66 Y191.656 E7.53594
G1 X210.165 Y191.762 E7.54857
G1 X209.722 Y191.799 E7.55966
G1 X205.421 Y191.8 E7.66695
G1 X204.72 Y191.79 E7.68443
G1 X204.217 Y191.743 E7.69704
G1 X203.727 Y191.617 E7.70966
G1 X203.264 Y191.415 E7.72226
G1 X202.837 Y191.143 E7.73489
G1 X202.392 Y190.749 E7.74971
G1 X200.349 Y188.139 E7.83239
G1 X198.576 Y186.008 E7.90155
G1 X196.797 Y183.99 E7.96865
G1 X194.901 Y181.954 E8.03805
G1 X193 Y180.028 E8.10556
G1 X191.005 Y178.117 E8.17447
G1 X189.006 Y176.308 E8.24172
G1 X186.895 Y174.504 E8.31099
G1 X184.762 Y172.782 E8.37937
G1 X182.595 Y171.132 E8.44732
G1 X180.373 Y169.539 E8.51552
G1 X178.114 Y168.012 E8.58354
G1 X175.795 Y166.54 E8.65205
G1 X173.422 Y165.125 E8.72097
G1 X171.057 Y163.805 E8.78853
G1 X168.611 Y162.528 E8.85737
G1 X166.157 Y161.336 E8.92542
G1 X163.665 Y160.209 E8.99364
G1 X161.113 Y159.143 E9.06264
G1 X158.569 Y158.163 E9.13064
G1 X156.009 Y157.258 E9.19837
G1 X153.395 Y156.417 E9.26687
G1 X150.775 Y155.655 E9.33494
G1 X148.088 Y154.955 E9.4042
G1 X145.453 Y154.349 E9.47165
G1 X142.752 Y153.807 E9.54037
G1 X140.065 Y153.347 E9.60837
G1 X137.335 Y152.958 E9.67716
G1 X134.635 Y152.65 E9.74495
G1 X131.926 Y152.42 E9.81277
G1 X129.179 Y152.264 E9.8814
G1 X126.425 Y152.185 E9.95013
G1 X123.707 Y152.185 E10.01793
G1 X120.957 Y152.262 E10.08655
G1 X118.239 Y152.416 E10.15446
G1 X115.5 Y152.648 E10.22303
G1 X112.764 Y152.959 E10.29172
G1 X110.068 Y153.343 E10.35965
G1 X107.39 Y153.801 E10.42743
G1 X104.675 Y154.345 E10.4965
G1 X102.042 Y154.949 E10.56388
G1 X99.367 Y155.646 E10.63284
G1 X96.727 Y156.413 E10.70142
G1 X94.155 Y157.24 E10.76881
G1 X91.531 Y158.166 E10.83822
G1 X89.001 Y159.14 E10.90585
G1 X86.475 Y160.196 E10.97415
G1 X83.971 Y161.327 E11.04269
G1 X81.507 Y162.524 E11.11102
G1 X79.075 Y163.792 E11.17944
G1 X76.712 Y165.111 E11.24694
G1 X74.36 Y166.512 E11.31523
G1 X72.007 Y168.005 E11.38475
G1 X69.782 Y169.507 E11.45171
G1 X67.523 Y171.128 E11.52107
G1 X65.348 Y172.782 E11.58923
G1 X63.224 Y174.495 E11.6573
G1 X61.163 Y176.256 E11.72492
G1 X59.102 Y178.121 E11.79426
G1 X57.137 Y180.001 E11.8621
G1 X55.197 Y181.966 E11.93098
G1 X53.37 Y183.926 E11.99782
G1 X51.515 Y186.031 E12.06781
G1 X49.795 Y188.097 E12.13487
G1 X48.736 Y189.46 E12.17792
G1 X48.612 Y189.596 E12.18251
G1 X47.854 Y190.564 E12.21318
G1 X47.512 Y190.936 E12.22579
G1 X47.116 Y191.25 E12.23839
G1 X46.675 Y191.497 E12.251
G1 X46.2 Y191.672 E12.26363
G1 X45.704 Y191.77 E12.27624
G1 X45.1 Y191.799 E12.29133
G1 X40.917 Y191.8 E12.39567
G1 X40.219 Y191.791 E12.41309
G1 X39.715 Y191.744 E12.42571
G1 X39.225 Y191.619 E12.43833
G1 X38.761 Y191.418 E12.45094
G1 X38.335 Y191.147 E12.46354
G1 X37.956 Y190.812 E12.47615
G1 X37.635 Y190.421 E12.48877
G1 X37.38 Y189.985 E12.50137
G1 X37.196 Y189.514 E12.51399
G1 X37.089 Y189.02 E12.5266
G1 X37.052 Y188.567 E12.53793
G1 X37.051 Y70.817 E15.47522
G1 X37.061 Y70.102 E15.49306
G1 X37.086 Y69.555 E15.50672
G1 X37.191 Y68.306 E15.53798
G1 X37.292 Y67.587 E15.55609
G1 X37.437 Y66.725 E15.5779
G1 X37.635 Y65.965 E15.59749
G1 X37.831 Y65.282 E15.61521
G1 X38.252 Y64.191 E15.64439
G1 X38.561 Y63.599 E15.66104
G1 X38.975 Y62.951 E15.68023
G1 X39.452 Y62.257 E15.70123
G1 X39.937 Y61.627 E15.72106
G1 X40.314 Y61.218 E15.73494
G1 X41.156 Y60.452 E15.76334
G1 F2100 E14.96334
G1 F600 Z1.15
;MESH:v7.top.left.stl
G0 F3600 X53.578 Y65.789 Z1.15
;TYPE:WALL-INNER
G1 F600 Z0.15
G1 F2100 E15.76334
G1 F900 X196.524 Y65.789 E19.32914
G1 X196.766 Y65.892 E19.3357
G1 X205.257 Y74.383 E19.63524
G1 X205.361 Y74.624 E19.64179
G1 X205.361 Y187.999 E22.46994
G1 X209.149 Y187.999 E22.56443
G1 X209.149 Y69.067 E25.5312
G1 X209.149 Y68.775 E25.53849
G1 X208.957 Y67.532 E25.56986
G1 X208.674 Y66.492 E25.59675
G1 X208.299 Y65.554 E25.62195
G1 X207.731 Y64.701 E25.64751
G1 X207.166 Y63.948 E25.67099
G1 X206.458 Y63.329 E25.69445
G1 X205.532 Y62.865 E25.72029
G1 X204.577 Y62.483 E25.74595
G1 X203.416 Y62.193 E25.7758
G1 X202.265 Y62.001 E25.80491
G1 X47.839 Y62 E29.65708
G1 X46.688 Y62.192 E29.68619
G1 X45.526 Y62.483 E29.71607
G1 X44.571 Y62.865 E29.74173
G1 X43.641 Y63.331 E29.76768
G1 X42.934 Y63.948 E29.79108
G1 X42.371 Y64.699 E29.8145
G1 X41.802 Y65.552 E29.84007
G1 X41.427 Y66.491 E29.8653
G1 X41.146 Y67.533 E29.89222
G1 X40.95 Y68.8 E29.9242
G1 X40.851 Y70.176 E29.95861
G1 X40.851 Y188 E32.89774
G1 X44.741 Y188 E32.99478
G1 X44.741 Y74.625 E35.82293
G1 X44.844 Y74.383 E35.82949
G1 X53.336 Y65.892 E36.12905
G1 X53.578 Y65.789 E36.13561
G0 F3600 X53.571 Y66.223
;TYPE:WALL-OUTER
G1 F900 X53.654 Y66.191 E36.13783
G1 X196.452 Y66.189 E39.69994
G1 X196.532 Y66.224 E39.70212
G1 X204.902 Y74.594 E39.9974
G1 X204.961 Y74.695 E40.00031
G1 X204.961 Y188.399 E42.83667
G1 X209.549 Y188.399 E42.95112
G1 X209.549 Y69.067 E45.92787
G1 X209.549 Y68.744 E45.93593
G1 X209.349 Y67.448 E45.96864
G1 X209.054 Y66.365 E45.99664
G1 X208.655 Y65.367 E46.02345
G1 X208.058 Y64.47 E46.05033
G1 X207.461 Y63.674 E46.07515
G1 X206.683 Y62.994 E46.10092
G1 X205.696 Y62.5 E46.12846
G1 X204.701 Y62.101 E46.1552
G1 X203.498 Y61.801 E46.18612
G1 X202.298 Y61.601 E46.21647
G1 X47.806 Y61.6 E50.07029
G1 X46.606 Y61.8 E50.10064
G1 X45.402 Y62.101 E50.1316
G1 X44.407 Y62.5 E50.15834
G1 X43.416 Y62.996 E50.18598
G1 X42.639 Y63.674 E50.21171
G1 X42.044 Y64.468 E50.23646
G1 X41.446 Y65.365 E50.26335
G1 X41.047 Y66.365 E50.29021
G1 X40.754 Y67.45 E50.31824
G1 X40.552 Y68.755 E50.35118
G1 X40.451 Y70.162 E50.38637
G1 X40.451 Y188.4 E53.33583
G1 X45.141 Y188.4 E53.45282
G1 X45.141 Y74.697 E56.28915
G1 X45.176 Y74.617 E56.29133
G1 X53.571 Y66.223 E56.58747
G0 F3600 X53.654 Y66.191
G0 X53.766 Y66.191
G0 X53.448 Y65.438
;TYPE:SKIN
G1 F900 X53.667 Y65.41 E56.59298
G1 X196.436 Y65.41 E60.15437
G1 X196.655 Y65.439 E60.15988
G1 X197.01 Y65.6 E60.1696
G1 X205.553 Y74.143 E60.47098
G1 X205.71 Y74.493 E60.48055
G1 X205.74 Y74.706 E60.48591
G1 X205.741 Y187.619 E63.30254
G1 X208.769 Y187.619 E63.37807
G1 X208.769 Y69.065 E66.33541
G1 X208.769 Y68.802 E66.34197
G1 X208.585 Y67.61 E66.37206
G1 X208.317 Y66.628 E66.39745
G1 X207.962 Y65.737 E66.42138
G1 X207.42 Y64.922 E66.44579
G1 X206.884 Y64.207 E66.46808
G1 X206.245 Y63.648 E66.48926
G1 X205.376 Y63.213 E66.5135
G1 X204.462 Y62.846 E66.53807
G1 X203.338 Y62.566 E66.56697
G1 X202.231 Y62.382 E66.59496
G1 X47.875 Y62.381 E70.44539
G1 X46.768 Y62.564 E70.47338
G1 X45.642 Y62.847 E70.50234
G1 X44.729 Y63.213 E70.52688
G1 X43.853 Y63.651 E70.55131
G1 X43.214 Y64.207 E70.57244
G1 X42.682 Y64.918 E70.59459
G1 X42.139 Y65.733 E70.61902
G1 X41.786 Y66.627 E70.64299
G1 X41.519 Y67.613 E70.66847
G1 X41.328 Y68.844 E70.69955
G1 X41.231 Y70.189 E70.73319
G1 X41.231 Y187.62 E73.66252
G1 X44.361 Y187.62 E73.74059
G1 X44.362 Y74.713 E76.55707
G1 X44.391 Y74.494 E76.56258
G1 X44.55 Y74.141 E76.57224
G1 X53.096 Y65.596 E76.8737
G1 X53.448 Y65.438 E76.88333
G0 F3600 X44.505 Y74.39
G0 X42.038 Y187.419
G1 F900 X41.431 Y186.812 E76.90474
G0 F3600 X41.431 Y186.246
G1 F900 X42.603 Y187.419 E76.94611
G0 F3600 X43.169 Y187.419
G1 F900 X41.431 Y185.681 E77.00742
G0 F3600 X41.431 Y185.115
G1 F900 X43.735 Y187.419 E77.0887
G0 F3600 X44.161 Y187.28
G1 F900 X41.431 Y184.549 E77.18502
G0 F3600 X41.431 Y183.984
G1 F900 X44.161 Y186.714 E77.28133
G0 F3600 X44.161 Y186.148
G1 F900 X41.431 Y183.418 E77.37764
G0 F3600 X41.431 Y182.852
G1 F900 X44.161 Y185.583 E77.47397
G0 F3600 X44.161 Y185.017
G1 F900 X41.431 Y182.287 E77.57027
G0 F3600 X41.431 Y181.721
G1 F900 X44.161 Y184.451 E77.66658
G0 F3600 X44.161 Y183.885
G1 F900 X41.431 Y181.155 E77.76289
G0 F3600 X41.431 Y180.59
G1 F900 X44.161 Y183.32 E77.8592
G0 F3600 X44.161 Y182.754
G1 F900 X41.431 Y180.024 E77.95551
G0 F3600 X41.431 Y179.458
G1 F900 X44.161 Y182.188 E78.05181
G0 F3600 X44.161 Y181.623
G1 F900 X41.431 Y178.893 E78.14812
G0 F3600 X41.431 Y178.327
G1 F900 X44.161 Y181.057 E78.24443
G0 F3600 X44.161 Y180.491
G1 F900 X41.431 Y177.761 E78.34074
G0 F3600 X41.431 Y177.196
G1 F900 X44.161 Y179.926 E78.43705
G0 F3600 X44.161 Y179.36
G1 F900 X41.431 Y176.63 E78.53336
G0 F3600 X41.431 Y176.064
G1 F900 X44.161 Y178.794 E78.62966
G0 F3600 X44.161 Y178.229
G1 F900 X41.431 Y175.498 E78.72599
G0 F3600 X41.431 Y174.933
G1 F900 X44.161 Y177.663 E78.8223
G0 F3600 X44.161 Y177.097
G1 F900 X41.431 Y174.367 E78.91861
G0 F3600 X41.431 Y173.801
G1 F900 X44.161 Y176.532 E79.01493
G0 F3600 X44.161 Y175.966
G1 F900 X41.431 Y173.236 E79.11124
G0 F3600 X41.431 Y172.67
G1 F900 X44.161 Y175.4 E79.20755
G0 F3600 X44.161 Y174.834
G1 F900 X41.431 Y172.104 E79.30386
G0 F3600 X41.431 Y171.539
G1 F900 X44.161 Y174.269 E79.40016
G0 F3600 X44.161 Y173.703
G1 F900 X41.431 Y170.973 E79.49647
G0 F3600 X41.431 Y170.407
G1 F900 X44.161 Y173.137 E79.59278
G0 F3600 X44.161 Y172.572
G1 F900 X41.431 Y169.842 E79.68909
G0 F3600 X41.431 Y169.276
G1 F900 X44.161 Y172.006 E79.7854
G0 F3600 X44.161 Y171.44
G1 F900 X41.431 Y168.71 E79.8817
G0 F3600 X41.431 Y168.145
G1 F900 X44.161 Y170.875 E79.97801
G0 F3600 X44.161 Y170.309
G1 F900 X41.431 Y167.579 E80.07432
G0 F3600 X41.431 Y167.013
G1 F900 X44.161 Y169.743 E80.17063
G0 F3600 X44.161 Y169.178
G1 F900 X41.431 Y166.447 E80.26695
G0 F3600 X41.431 Y165.882
G1 F900 X44.161 Y168.612 E80.36326
G0 F3600 X44.161 Y168.046
G1 F900 X41.431 Y165.316 E80.45957
G0 F3600 X41.431 Y164.75
G1 F900 X44.161 Y167.481 E80.5559
G0 F3600 X44.161 Y166.915
G1 F900 X41.431 Y164.185 E80.6522
G0 F3600 X41.431 Y163.619
G1 F900 X44.161 Y166.349 E80.74851
G0 F3600 X44.161 Y165.784
G1 F900 X41.431 Y163.053 E80.84484
G0 F3600 X41.431 Y162.488
G1 F900 X44.161 Y165.218 E80.94115
G0 F3600 X44.161 Y164.652
G1 F900 X41.431 Y161.922 E81.03745
G0 F3600 X41.431 Y161.356
G1 F900 X44.161 Y164.086 E81.13376
G0 F3600 X44.161 Y163.521
G1 F900 X41.431 Y160.791 E81.23007
G0 F3600 X41.431 Y160.225
G1 F900 X44.161 Y162.955 E81.32638
G0 F3600 X44.161 Y162.389
G1 F900 X41.431 Y159.659 E81.42269
G0 F3600 X41.431 Y159.094
G1 F900 X44.161 Y161.824 E81.519
G0 F3600 X44.161 Y161.258
G1 F900 X41.431 Y158.528 E81.6153
G0 F3600 X41.431 Y157.962
G1 F900 X44.161 Y160.692 E81.71161
G0 F3600 X44.161 Y160.127
G1 F900 X41.431 Y157.397 E81.80792
G0 F3600 X41.431 Y156.831
G1 F900 X44.161 Y159.561 E81.90423
G0 F3600 X44.162 Y158.996
G1 F900 X41.431 Y156.265 E82.00057
G0 F3600 X41.431 Y155.699
G1 F900 X44.162 Y158.43 E82.09691
G0 F3600 X44.162 Y157.865
G1 F900 X41.431 Y155.134 E82.19326
G0 F3600 X41.431 Y154.568
G1 F900 X44.162 Y157.299 E82.2896
G0 F3600 X44.162 Y156.733
G1 F900 X41.431 Y154.002 E82.38594
G0 F3600 X41.431 Y153.437
G1 F900 X44.162 Y156.168 E82.48229
G0 F3600 X44.162 Y155.602
G1 F900 X41.431 Y152.871 E82.57863
G0 F3600 X41.431 Y152.305
G1 F900 X44.162 Y155.036 E82.67497
G0 F3600 X44.162 Y154.471
G1 F900 X41.431 Y151.74 E82.77132
G0 F3600 X41.431 Y151.174
G1 F900 X44.162 Y153.905 E82.86766
G0 F3600 X44.162 Y153.339
G1 F900 X41.431 Y150.608 E82.964
G0 F3600 X41.431 Y150.043
G1 F900 X44.162 Y152.773 E83.06033
G0 F3600 X44.162 Y152.208
G1 F900 X41.431 Y149.477 E83.15667
G0 F3600 X41.431 Y148.911
G1 F900 X44.162 Y151.642 E83.25302
G0 F3600 X44.162 Y151.076
G1 F900 X41.431 Y148.346 E83.34934
G0 F3600 X41.431 Y147.78
G1 F900 X44.162 Y150.511 E83.44569
G0 F3600 X44.162 Y149.945
G1 F900 X41.431 Y147.214 E83.54203
G0 F3600 X41.431 Y146.648
G1 F900 X44.162 Y149.379 E83.63837
G0 F3600 X44.162 Y148.814
G1 F900 X41.431 Y146.083 E83.73472
G0 F3600 X41.431 Y145.517
G1 F900 X44.162 Y148.248 E83.83106
G0 F3600 X44.162 Y147.682
G1 F900 X41.431 Y144.951 E83.9274
G0 F3600 X41.431 Y144.386
G1 F900 X44.162 Y147.117 E84.02375
G0 F3600 X44.162 Y146.551
G1 F900 X41.431 Y143.82 E84.12009
G0 F3600 X41.431 Y143.254
G1 F900 X44.162 Y145.985 E84.21643
G0 F3600 X44.162 Y145.42
G1 F900 X41.431 Y142.689 E84.31278
G0 F3600 X41.431 Y142.123
G1 F900 X44.162 Y144.854 E84.40912
G0 F3600 X44.162 Y144.288
G1 F900 X41.431 Y141.557 E84.50546
G0 F3600 X41.431 Y140.992
G1 F900 X44.162 Y143.722 E84.60179
G0 F3600 X44.162 Y143.157
G1 F900 X41.431 Y140.426 E84.69813
G0 F3600 X41.431 Y139.86
G1 F900 X44.162 Y142.591 E84.79448
G0 F3600 X44.162 Y142.025
G1 F900 X41.431 Y139.295 E84.8908
G0 F3600 X41.431 Y138.729
G1 F900 X44.162 Y141.46 E84.98715
G0 F3600 X44.162 Y140.894
G1 F900 X41.431 Y138.163 E85.08349
G0 F3600 X41.431 Y137.598
G1 F900 X44.162 Y140.328 E85.17981
G0 F3600 X44.162 Y139.763
G1 F900 X41.431 Y137.032 E85.27616
G0 F3600 X41.431 Y136.466
G1 F900 X44.162 Y139.197 E85.3725
G0 F3600 X44.162 Y138.631
G1 F900 X41.431 Y135.9 E85.46885
G0 F3600 X41.431 Y135.335
G1 F900 X44.162 Y138.066 E85.56519
G0 F3600 X44.162 Y137.5
G1 F900 X41.431 Y134.769 E85.66153
G0 F3600 X41.431 Y134.203
G1 F900 X44.162 Y136.934 E85.75788
G0 F3600 X44.162 Y136.369
G1 F900 X41.431 Y133.638 E85.85422
G0 F3600 X41.431 Y133.072
G1 F900 X44.162 Y135.803 E85.95056
G0 F3600 X44.162 Y135.237
G1 F900 X41.431 Y132.506 E86.04691
G0 F3600 X41.431 Y131.941
G1 F900 X44.162 Y134.672 E86.14325
G0 F3600 X44.162 Y134.106
G1 F900 X41.431 Y131.375 E86.23959
G0 F3600 X41.431 Y130.809
G1 F900 X44.162 Y133.54 E86.33594
G0 F3600 X44.162 Y132.974
G1 F900 X41.431 Y130.244 E86.43226
G0 F3600 X41.431 Y129.678
G1 F900 X44.162 Y132.409 E86.5286
G0 F3600 X44.162 Y131.843
G1 F900 X41.431 Y129.112 E86.62495
G0 F3600 X41.431 Y128.547
G1 F900 X44.162 Y131.277 E86.72127
G0 F3600 X44.163 Y130.712
G1 F900 X41.431 Y127.981 E86.81764
G0 F3600 X41.431 Y127.415
G1 F900 X44.163 Y130.147 E86.91401
G0 F3600 X44.163 Y129.581
G1 F900 X41.431 Y126.85 E87.01037
G0 F3600 X41.431 Y126.284
G1 F900 X44.163 Y129.015 E87.10674
G0 F3600 X44.163 Y128.45
G1 F900 X41.431 Y125.718 E87.20311
G0 F3600 X41.431 Y125.152
G1 F900 X44.163 Y127.884 E87.29949
G0 F3600 X44.163 Y127.318
G1 F900 X41.431 Y124.587 E87.39585
G0 F3600 X41.431 Y124.021
G1 F900 X44.163 Y126.753 E87.49223
G0 F3600 X44.163 Y126.187
G1 F900 X41.431 Y123.455 E87.58861
G0 F3600 X41.431 Y122.89
G1 F900 X44.163 Y125.621 E87.68497
G0 F3600 X44.163 Y125.056
G1 F900 X41.431 Y122.324 E87.78135
G0 F3600 X41.431 Y121.758
G1 F900 X44.163 Y124.49 E87.87773
G0 F3600 X44.163 Y123.924
G1 F900 X41.431 Y121.193 E87.97409
G0 F3600 X41.431 Y120.627
G1 F900 X44.163 Y123.359 E88.07047
G0 F3600 X44.163 Y122.793
G1 F900 X41.431 Y120.061 E88.16685
G0 F3600 X41.431 Y119.496
G1 F900 X44.163 Y122.227 E88.26321
G0 F3600 X44.163 Y121.661
G1 F900 X41.431 Y118.93 E88.35957
G0 F3600 X41.431 Y118.364
G1 F900 X44.163 Y121.096 E88.45595
G0 F3600 X44.163 Y120.53
