;FLAVOR:Marlin
;TIME:5201
;Filament used: 3.53014m
;Layer height: 0.2
;MINX:37.051
;MINY:58.2
;MINZ:0.15
;MAXX:212.949
;MAXY:191.8
;MAXZ:7.35
;Generated with Cura_SteamEngine 5.2.1
M140 S60
M105
M190 S60
M104 S200
M105
M109 S200
M82 ;absolute extrusion mode
G28 
G1 Z15 F300
M107
G90
M82
M104 S215
M140 S55
G92 E0
M109 S215
M107
G0 X10 Y20 F6000
G1 Z0.8
G1 F300 X200 E40
G1 F1200 Z2
G92 E0
G28
G92 E0
G92 E0
G1 F2100 E-0.8
;LAYER_COUNT:32
;LAYER:0
M107
G1 F600 Z1.15
G0 F3600 X38.431 Y58.783 Z1.15
;TYPE:SKIRT
G1 F600 Z0.15
G1 F2100 E0
G1 F900 X38.868 Y58.528 E0.01262
G1 X39.339 Y58.344 E0.02524
G1 X39.833 Y58.238 E0.03784
G1 X40.278 Y58.201 E0.04898
G1 X44.68 Y58.2 E0.15879
G1 X45.382 Y58.21 E0.1763
G1 X45.885 Y58.257 E0.1889
G1 X46.375 Y58.383 E0.20152
G1 X46.838 Y58.585 E0.21412
G1 X47.265 Y58.856 E0.22674
G1 X47.71 Y59.252 E0.2416
G1 X49.746 Y61.854 E0.32401
G1 X51.497 Y63.959 E0.39232
G1 X53.323 Y66.031 E0.46121
G1 X55.172 Y68.017 E0.5289
G1 X57.111 Y69.98 E0.59772
G1 X59.113 Y71.899 E0.6669
G1 X61.111 Y73.706 E0.7341
G1 X63.183 Y75.477 E0.8021
G1 X65.314 Y77.197 E0.87041
G1 X67.524 Y78.88 E0.9397
G1 X69.716 Y80.453 E1.007
G1 X71.987 Y81.988 E1.07538
G1 X74.321 Y83.47 E1.14435
G1 X76.665 Y84.866 E1.2124
G1 X79.058 Y86.203 E1.28078
G1 X81.465 Y87.459 E1.34851
G1 X83.943 Y88.664 E1.41724
G1 X86.443 Y89.794 E1.48568
G1 X88.968 Y90.85 E1.55395
G1 X91.557 Y91.847 E1.62316
G1 X94.078 Y92.737 E1.68985
G1 X96.706 Y93.583 E1.75872
G1 X99.334 Y94.347 E1.82699
G1 X101.998 Y95.041 E1.89566
G1 X104.639 Y95.649 E1.96326
G1 X107.365 Y96.195 E2.03262
G1 X110.04 Y96.654 E2.10032
G1 X112.761 Y97.042 E2.16888
G1 X115.466 Y97.35 E2.23679
G1 X118.175 Y97.58 E2.30461
G1 X120.921 Y97.736 E2.37322
G1 X123.676 Y97.815 E2.44197
G1 X126.395 Y97.815 E2.5098
G1 X129.144 Y97.738 E2.5784
G1 X131.863 Y97.584 E2.64634
G1 X134.601 Y97.352 E2.71488
G1 X137.338 Y97.041 E2.78359
G1 X140.033 Y96.657 E2.8515
G1 X142.72 Y96.197 E2.9195
G1 X145.413 Y95.659 E2.98801
G1 X148.064 Y95.049 E3.05587
G1 X150.743 Y94.351 E3.12492
G1 X153.364 Y93.59 E3.19301
G1 X155.958 Y92.756 E3.26098
G1 X158.553 Y91.84 E3.32962
G1 X161.088 Y90.866 E3.39737
G1 X163.641 Y89.798 E3.4664
G1 X166.127 Y88.675 E3.53444
G1 X168.581 Y87.483 E3.6025
G1 X170.999 Y86.222 E3.67053
G1 X173.403 Y84.881 E3.73919
G1 X175.764 Y83.473 E3.80777
G1 X178.094 Y81.995 E3.8766
G1 X180.323 Y80.49 E3.94369
G1 X182.559 Y78.886 E4.01233
G1 X184.768 Y77.204 E4.08159
G1 X186.853 Y75.524 E4.14838
G1 X188.954 Y73.73 E4.2173
G1 X190.997 Y71.881 E4.28604
G1 X192.965 Y69.998 E4.35398
G1 X194.895 Y68.042 E4.42253
G1 X196.743 Y66.062 E4.49009
G1 X198.568 Y63.991 E4.55894
G1 X200.312 Y61.895 E4.62696
G1 X201.362 Y60.541 E4.6697
G1 X201.501 Y60.388 E4.67486
G1 X202.247 Y59.436 E4.70503
G1 X202.589 Y59.064 E4.71764
G1 X202.985 Y58.75 E4.73024
G1 X203.426 Y58.503 E4.74285
G1 X203.901 Y58.328 E4.75548
G1 X204.397 Y58.23 E4.76809
G1 X205.001 Y58.201 E4.78317
G1 X209.083 Y58.2 E4.885
G1 X209.781 Y58.209 E4.90241
G1 X210.285 Y58.256 E4.91504
G1 X210.775 Y58.381 E4.92766
G1 X211.239 Y58.582 E4.94027
G1 X211.665 Y58.853 E4.95286
G1 X212.044 Y59.188 E4.96548
G1 X212.365 Y59.579 E4.9781
G1 X212.62 Y60.015 E4.9907
G1 X212.804 Y60.486 E5.00331
G1 X212.911 Y60.98 E5.01592
G1 X212.948 Y61.64 E5.03241
G1 X212.949 Y180.609 E8.00011
G1 X212.937 Y181.415 E8.02021
G1 X212.79 Y182.522 E8.04807
G1 X212.665 Y183.275 E8.06711
G1 X212.489 Y183.954 E8.08461
G1 X212.273 Y184.706 E8.10413
G1 X212.008 Y185.398 E8.12261
G1 X211.792 Y185.919 E8.13668
G1 X211.534 Y186.413 E8.15058
G1 X210.969 Y187.293 E8.17667
G1 X210.251 Y188.279 E8.2071
G1 X209.796 Y188.773 E8.22385
G1 X208.941 Y189.55 E8.25267
G1 X208.268 Y190.004 E8.27292
G1 X207.686 Y190.305 E8.28926
G1 X207.132 Y190.571 E8.30459
G1 X206.522 Y190.83 E8.32112
G1 X205.758 Y191.126 E8.34156
G1 X205.016 Y191.325 E8.36073
G1 X204.105 Y191.535 E8.38405
G1 X203.469 Y191.651 E8.40017
G1 X202.575 Y191.787 E8.42273
G1 X201.738 Y191.8 E8.44361
G1 X48.443 Y191.8 E12.26757
G1 X47.514 Y191.786 E12.29075
G1 X46.748 Y191.67 E12.31008
G1 X45.87 Y191.51 E12.33234
G1 X45.189 Y191.351 E12.34978
G1 X44.368 Y191.133 E12.37097
G1 X43.67 Y190.866 E12.38961
G1 X43.071 Y190.617 E12.4058
G1 X42.363 Y190.279 E12.42537
G1 X41.83 Y190.001 E12.44036
G1 X41.238 Y189.603 E12.45816
G1 X40.826 Y189.253 E12.47164
G1 X40.398 Y188.87 E12.48597
G1 X40.014 Y188.459 E12.5
G1 X39.554 Y187.87 E12.51864
G1 X39.236 Y187.433 E12.53212
G1 X38.894 Y186.934 E12.54721
G1 X38.62 Y186.512 E12.55977
G1 X38.356 Y186.013 E12.57385
G1 X38.018 Y185.208 E12.59563
G1 X37.796 Y184.595 E12.61189
G1 X37.629 Y184.013 E12.62699
G1 X37.431 Y183.246 E12.64675
G1 X37.304 Y182.488 E12.66593
G1 X37.164 Y181.439 E12.69233
G1 X37.106 Y180.728 E12.71012
G1 X37.052 Y179.757 E12.73438
G1 X37.051 Y62.032 E15.67104
G1 X37.06 Y61.366 E15.68766
G1 X37.107 Y60.862 E15.70028
G1 X37.232 Y60.373 E15.71287
G1 X37.433 Y59.909 E15.72549
G1 X37.705 Y59.482 E15.73812
G1 X38.04 Y59.104 E15.75072
G1 X38.431 Y58.783 E15.76334
G1 F2100 E14.96334
G1 F600 Z1.15
;MESH:v7.top.right.stl
G0 F3600 X40.851 Y62 Z1.15
;TYPE:WALL-INNER
G1 F600 Z0.15
G1 F2100 E15.76334
G1 F900 X40.852 Y179.824 E18.70247
G1 X40.95 Y181.2 E18.73688
G1 X41.145 Y182.467 E18.76886
G1 X41.428 Y183.508 E18.79577
G1 X41.802 Y184.446 E18.82096
G1 X42.37 Y185.299 E18.84652
G1 X42.936 Y186.052 E18.87002
G1 X43.643 Y186.671 E18.89346
G1 X44.569 Y187.135 E18.9193
G1 X45.524 Y187.517 E18.94495
G1 X46.686 Y187.807 E18.97483
G1 X47.837 Y188 E19.00394
G1 X202.263 Y188 E22.85611
G1 X203.414 Y187.808 E22.88522
G1 X204.575 Y187.517 E22.91508
G1 X205.53 Y187.135 E22.94074
G1 X206.461 Y186.669 E22.96671
G1 X207.168 Y186.052 E22.99012
G1 X207.73 Y185.301 E23.01351
G1 X208.299 Y184.448 E23.03909
G1 X208.673 Y183.508 E23.06433
G1 X208.956 Y182.467 E23.09124
G1 X209.149 Y181.222 E23.12267
G1 X209.149 Y63.895 E26.0494
G1 X209.149 Y62 E26.09667
G1 X205.36 Y62 E26.19119
G1 X205.361 Y175.376 E29.01936
G1 X205.257 Y175.617 E29.02591
G1 X196.766 Y184.108 E29.32545
G1 X196.524 Y184.211 E29.33202
G1 X53.578 Y184.211 E32.89782
G1 X53.336 Y184.108 E32.90438
G1 X44.844 Y175.617 E33.20394
G1 X44.741 Y175.375 E33.2105
G1 X44.741 Y62 E36.03865
G1 X40.851 Y62 E36.13569
G0 F3600 X40.451 Y61.6
;TYPE:WALL-OUTER
G1 F900 X40.452 Y179.838 E39.08515
G1 X40.552 Y181.245 E39.12033
G1 X40.753 Y182.55 E39.15327
G1 X41.048 Y183.635 E39.18132
G1 X41.446 Y184.633 E39.20812
G1 X42.044 Y185.53 E39.23501
G1 X42.641 Y186.326 E39.25983
G1 X43.418 Y187.006 E39.28559
G1 X44.405 Y187.5 E39.31312
G1 X45.4 Y187.899 E39.33986
G1 X46.604 Y188.199 E39.37081
G1 X47.804 Y188.4 E39.40117
G1 X202.296 Y188.4 E43.25498
G1 X203.496 Y188.2 E43.28533
G1 X204.699 Y187.899 E43.31627
G1 X205.694 Y187.5 E43.34301
G1 X206.685 Y187.004 E43.37065
G1 X207.463 Y186.326 E43.39639
G1 X208.057 Y185.532 E43.42113
G1 X208.655 Y184.635 E43.44802
G1 X209.053 Y183.635 E43.47487
G1 X209.348 Y182.55 E43.50292
G1 X209.549 Y181.252 E43.53568
G1 X209.549 Y63.895 E46.46317
G1 X209.549 Y61.6 E46.52041
G1 X204.96 Y61.6 E46.63489
G1 X204.958 Y175.299 E49.47112
G1 X204.926 Y175.382 E49.47334
G1 X196.531 Y183.777 E49.7695
G1 X196.448 Y183.809 E49.77171
G1 X53.65 Y183.811 E53.33383
G1 X53.57 Y183.776 E53.336
G1 X45.175 Y175.382 E53.63214
G1 X45.143 Y175.299 E53.63436
G1 X45.141 Y61.6 E56.47059
G1 X40.451 Y61.6 E56.58759
G0 F3600 X40.451 Y61.8
G0 X41.231 Y62.38
;TYPE:SKIN
G1 F900 X41.232 Y179.811 E59.51691
G1 X41.328 Y181.155 E59.55053
G1 X41.518 Y182.386 E59.5816
G1 X41.786 Y183.373 E59.60711
G1 X42.139 Y184.263 E59.63099
G1 X42.682 Y185.078 E59.65542
G1 X43.218 Y185.793 E59.67771
G1 X43.857 Y186.353 E59.69891
G1 X44.725 Y186.787 E59.72312
G1 X45.639 Y187.155 E59.74769
G1 X46.764 Y187.434 E59.77661
G1 X47.871 Y187.62 E59.80461
G1 X202.227 Y187.62 E63.65504
G1 X203.334 Y187.435 E63.68303
G1 X204.459 Y187.154 E63.71196
G1 X205.372 Y186.787 E63.7365
G1 X206.248 Y186.349 E63.76094
G1 X206.888 Y185.793 E63.78208
G1 X207.419 Y185.082 E63.80422
G1 X207.962 Y184.267 E63.82865
G1 X208.315 Y183.373 E63.85263
G1 X208.584 Y182.386 E63.87814
G1 X208.769 Y181.19 E63.90833
G1 X208.769 Y63.894 E66.83429
G1 X208.769 Y62.38 E66.87206
G1 X205.741 Y62.38 E66.94759
G1 X205.74 Y175.289 E69.76412
G1 X205.711 Y175.505 E69.76956
G1 X205.554 Y175.856 E69.77915
G1 X197.009 Y184.401 E70.0806
G1 X196.654 Y184.562 E70.09032
G1 X196.435 Y184.59 E70.09583
G1 X53.666 Y184.59 E73.65722
G1 X53.447 Y184.561 E73.66273
G1 X53.092 Y184.4 E73.67245
G1 X44.549 Y175.858 E73.97381
G1 X44.39 Y175.505 E73.98347
G1 X44.362 Y175.29 E73.98888
G1 X44.361 Y62.38 E76.80543
G1 X41.231 Y62.38 E76.88351
G0 F3600 X42.586 Y184.573
G1 F900 X44.426 Y186.413 E76.94842
G1 X44.496 Y186.483
G0 F3600 X45.434 Y186.855
G1 F900 X42.033 Y183.454 E77.0684
G1 X41.963 Y183.384
G0 F3600 X41.797 Y182.653
G1 F900 X46.241 Y187.097 E77.22517
G0 F3600 X46.975 Y187.265
G1 F900 X41.651 Y181.941 E77.41299
G0 F3600 X41.548 Y181.272
G1 F900 X47.656 Y187.38 E77.62846
G0 F3600 X48.26 Y187.419
G1 F900 X41.492 Y180.65 E77.86724
G0 F3600 X41.449 Y180.042
G1 F900 X48.826 Y187.419 E78.12749
G0 F3600 X49.392 Y187.419
G1 F900 X41.431 Y179.458 E78.40833
G0 F3600 X41.431 Y178.893
G1 F900 X49.957 Y187.419 E78.70911
G0 F3600 X50.523 Y187.419
G1 F900 X41.431 Y178.327 E79.02985
G0 F3600 X41.431 Y177.761
G1 F900 X51.089 Y187.419 E79.37057
G0 F3600 X51.654 Y187.419
G1 F900 X41.431 Y177.196 E79.73121
G0 F3600 X41.431 Y176.63
G1 F900 X52.22 Y187.419 E80.11182
G0 F3600 X52.786 Y187.419
G1 F900 X41.431 Y176.064 E80.5124
G0 F3600 X41.431 Y175.498
G1 F900 X53.351 Y187.419 E80.93293
G0 F3600 X53.917 Y187.419
G1 F900 X41.431 Y174.933 E81.3734
G0 F3600 X41.431 Y174.367
G1 F900 X54.483 Y187.419 E81.83385
G0 F3600 X55.048 Y187.419
G1 F900 X41.431 Y173.801 E82.31424
G0 F3600 X41.431 Y173.236
G1 F900 X55.614 Y187.419 E82.81459
G0 F3600 X56.18 Y187.419
G1 F900 X53.528 Y184.767 E82.90814
G0 F3600 X54.114 Y184.787
G1 F900 X56.746 Y187.419 E83.00099
G0 F3600 X57.311 Y187.419
G1 F900 X54.679 Y184.787 E83.09384
G0 F3600 X55.245 Y184.787
G1 F900 X57.877 Y187.419 E83.1867
G0 F3600 X58.443 Y187.419
G1 F900 X55.811 Y184.787 E83.27955
G0 F3600 X56.376 Y184.787
G1 F900 X59.008 Y187.419 E83.3724
G0 F3600 X59.574 Y187.419
G1 F900 X56.942 Y184.787 E83.46525
G0 F3600 X57.508 Y184.787
G1 F900 X60.14 Y187.419 E83.5581
G0 F3600 X60.705 Y187.419
G1 F900 X58.073 Y184.787 E83.65095
G0 F3600 X58.639 Y184.787
G1 F900 X61.271 Y187.419 E83.7438
G0 F3600 X61.837 Y187.419
G1 F900 X59.205 Y184.787 E83.83665
G0 F3600 X59.771 Y184.787
G1 F900 X62.402 Y187.419 E83.92949
G0 F3600 X62.968 Y187.419
G1 F900 X60.336 Y184.787 E84.02234
G0 F3600 X60.902 Y184.787
G1 F900 X63.534 Y187.419 E84.11519
G0 F3600 X64.099 Y187.419
G1 F900 X61.468 Y184.787 E84.20802
G0 F3600 X62.033 Y184.787
G1 F900 X64.665 Y187.419 E84.30087
G0 F3600 X65.231 Y187.419
G1 F900 X62.599 Y184.787 E84.39372
G0 F3600 X63.165 Y184.787
G1 F900 X65.796 Y187.419 E84.48656
G0 F3600 X66.362 Y187.419
G1 F900 X63.73 Y184.787 E84.57941
G0 F3600 X64.296 Y184.787
G1 F900 X66.928 Y187.419 E84.67226
G0 F3600 X67.494 Y187.419
G1 F900 X64.862 Y184.787 E84.76511
G0 F3600 X65.427 Y184.787
G1 F900 X68.059 Y187.419 E84.85796
G0 F3600 X68.625 Y187.419
G1 F900 X65.993 Y184.787 E84.95081
G0 F3600 X66.559 Y184.787
G1 F900 X69.191 Y187.419 E85.04366
G0 F3600 X69.756 Y187.419
G1 F900 X67.124 Y184.787 E85.13651
G0 F3600 X67.69 Y184.787
G1 F900 X70.322 Y187.419 E85.22936
G0 F3600 X70.888 Y187.419
G1 F900 X68.256 Y184.787 E85.32221
G0 F3600 X68.821 Y184.787
G1 F900 X71.453 Y187.419 E85.41506
G0 F3600 X72.019 Y187.419
G1 F900 X69.387 Y184.787 E85.50792
G0 F3600 X69.953 Y184.787
G1 F900 X72.585 Y187.419 E85.60077
G0 F3600 X73.15 Y187.419
G1 F900 X70.519 Y184.787 E85.6936
G0 F3600 X71.084 Y184.787
G1 F900 X73.716 Y187.419 E85.78645
G0 F3600 X74.282 Y187.419
G1 F900 X71.65 Y184.787 E85.8793
G0 F3600 X72.216 Y184.787
G1 F900 X74.847 Y187.419 E85.97213
G0 F3600 X75.413 Y187.419
G1 F900 X72.781 Y184.787 E86.06499
G0 F3600 X73.347 Y184.787
G1 F900 X75.979 Y187.419 E86.15784
G0 F3600 X76.545 Y187.419
G1 F900 X73.913 Y184.787 E86.25069
G0 F3600 X74.478 Y184.787
G1 F900 X77.11 Y187.419 E86.34354
G0 F3600 X77.676 Y187.419
G1 F900 X75.044 Y184.787 E86.43639
G0 F3600 X75.61 Y184.787
G1 F900 X78.242 Y187.419 E86.52924
G0 F3600 X78.807 Y187.419
G1 F900 X76.175 Y184.787 E86.62209
G0 F3600 X76.741 Y184.787
G1 F900 X79.373 Y187.419 E86.71494
G0 F3600 X79.939 Y187.419
G1 F900 X77.307 Y184.787 E86.80779
G0 F3600 X77.872 Y184.787
G1 F900 X80.504 Y187.419 E86.90064
G0 F3600 X81.07 Y187.419
G1 F900 X78.438 Y184.787 E86.99349
G0 F3600 X79.004 Y184.787
G1 F900 X81.636 Y187.419 E87.08635
G0 F3600 X82.201 Y187.419
G1 F900 X79.57 Y184.787 E87.17918
G0 F3600 X80.135 Y184.787
G1 F900 X82.767 Y187.419 E87.27203
G0 F3600 X83.333 Y187.419
G1 F900 X80.701 Y184.787 E87.36488
G0 F3600 X81.267 Y184.787
G1 F900 X83.898 Y187.419 E87.45771
G0 F3600 X84.464 Y187.419
G1 F900 X81.832 Y184.787 E87.55056
G0 F3600 X82.398 Y184.787
G1 F900 X85.03 Y187.419 E87.64342
G0 F3600 X85.595 Y187.419
G1 F900 X82.964 Y184.787 E87.73625
G0 F3600 X83.529 Y184.787
G1 F900 X86.161 Y187.419 E87.8291
G0 F3600 X86.727 Y187.419
G1 F900 X84.095 Y184.787 E87.92195
G0 F3600 X84.661 Y184.787
G1 F900 X87.293 Y187.419 E88.0148
G0 F3600 X87.858 Y187.419
G1 F900 X85.226 Y184.787 E88.10765
G0 F3600 X85.792 Y184.787
G1 F900 X88.424 Y187.419 E88.2005
G0 F3600 X88.99 Y187.419
G1 F900 X86.358 Y184.787 E88.29335
G0 F3600 X86.923 Y184.787
G1 F900 X89.555 Y187.419 E88.38621
G0 F3600 X90.121 Y187.419
G1 F900 X87.489 Y184.787 E88.47906
G0 F3600 X88.055 Y184.787
G1 F900 X90.687 Y187.419 E88.57191
G0 F3600 X91.252 Y187.419
G1 F900 X88.62 Y184.787 E88.66476
G0 F3600 X89.186 Y184.787
G1 F900 X91.818 Y187.419 E88.75761
G0 F3600 X92.384 Y187.419
G1 F900 X89.752 Y184.787 E88.85046
G0 F3600 X90.318 Y184.787
G1 F900 X92.949 Y187.419 E88.94329
G0 F3600 X93.515 Y187.419
G1 F900 X90.883 Y184.787 E89.03614
G0 F3600 X91.449 Y184.787
G1 F900 X94.081 Y187.419 E89.129
G0 F3600 X94.646 Y187.419
G1 F900 X92.015 Y184.787 E89.22183
G0 F3600 X92.58 Y184.787
G1 F900 X95.212 Y187.419 E89.31468
G0 F3600 X95.778 Y187.419
G1 F900 X93.146 Y184.787 E89.40753
G0 F3600 X93.712 Y184.787
G1 F900 X96.344 Y187.419 E89.50038
G0 F3600 X96.909 Y187.419
G1 F900 X94.277 Y184.787 E89.59323
G0 F3600 X94.843 Y184.787
G1 F900 X97.475 Y187.419 E89.68608
G0 F3600 X98.041 Y187.419
G1 F900 X95.409 Y184.787 E89.77893
G0 F3600 X95.974 Y184.787
G1 F900 X98.606 Y187.419 E89.87178
G0 F3600 X99.172 Y187.419
G1 F900 X96.54 Y184.787 E89.96464
G0 F3600 X97.106 Y184.787
G1 F900 X99.738 Y187.419 E90.05749
G0 F3600 X100.303 Y187.419
G1 F900 X97.671 Y184.787 E90.15034
G0 F3600 X98.237 Y184.787
G1 F900 X100.869 Y187.419 E90.24319
G0 F3600 X101.435 Y187.419
G1 F900 X98.803 Y184.787 E90.33604
G0 F3600 X99.369 Y184.787
G1 F900 X102 Y187.419 E90.42887
G0 F3600 X102.566 Y187.419
G1 F900 X99.934 Y184.787 E90.52172
G0 F3600 X100.5 Y184.787
G1 F900 X103.132 Y187.419 E90.61457
G0 F3600 X103.697 Y187.419
G1 F900 X101.066 Y184.787 E90.70741
G0 F3600 X101.631 Y184.787
G1 F900 X104.263 Y187.419 E90.80026
G0 F3600 X104.829 Y187.419
G1 F900 X102.197 Y184.787 E90.89311
G0 F3600 X102.763 Y184.787
G1 F900 X105.394 Y187.419 E90.98594
G0 F3600 X105.96 Y187.419
G1 F900 X103.328 Y184.787 E91.07879
G0 F3600 X103.894 Y184.787
G1 F900 X106.526 Y187.419 E91.17164
G0 F3600 X107.092 Y187.419
G1 F900 X104.46 Y184.787 E91.2645
G0 F3600 X105.025 Y184.787
G1 F900 X107.657 Y187.419 E91.35735
G0 F3600 X108.223 Y187.419
G1 F900 X105.591 Y184.787 E91.4502
G0 F3600 X106.157 Y184.787
G1 F900 X108.789 Y187.419 E91.54305
G0 F3600 X109.354 Y187.419
G1 F900 X106.722 Y184.787 E91.6359
G0 F3600 X107.288 Y184.787
G1 F900 X109.92 Y187.419 E91.72875
G0 F3600 X110.486 Y187.419
G1 F900 X107.854 Y184.787 E91.8216
G0 F3600 X108.419 Y184.787
G1 F900 X111.051 Y187.419 E91.91445
G0 F3600 X111.617 Y187.419
G1 F900 X108.985 Y184.787 E92.0073
G0 F3600 X109.551 Y184.787
G1 F900 X112.183 Y187.419 E92.10015
G0 F3600 X112.748 Y187.419
G1 F900 X110.117 Y184.787 E92.19299
G0 F3600 X110.682 Y184.787
G1 F900 X113.314 Y187.419 E92.28584
G0 F3600 X113.88 Y187.419
G1 F900 X111.248 Y184.787 E92.37869
