;FLAVOR:Marlin
;TIME:18445
;Filament used: 13.4431m
;Layer height: 0.2
;MINX:37.051
;MINY:58.2
;MINZ:0.3
;MAXX:212.949
;MAXY:191.8
;MAXZ:7.3
;Generated with Cura_SteamEngine 5.2.1
M140 S60
M105
M190 S60
M104 S200
M105
M109 S200
M82 ;absolute extrusion mode
G28 
G1 Z15 F300
M107
G90
M82
M104 S215
M140 S55
G92 E0
M109 S215
M107
G0 X10 Y20 F6000
G1 Z0.8
G1 F300 X200 E40
G1 F1200 Z2
G92 E0
G28
G92 E0
G92 E0
G1 F2100 E-0.8
;LAYER_COUNT:31
;LAYER:0
M107
G1 F600 Z1.3
G0 F3600 X38.436 Y58.78 Z1.3
;TYPE:SKIRT
G1 F600 Z0.3
G1 F2100 E0
G1 F900 X38.873 Y58.526 E0.02522
G1 X39.344 Y58.343 E0.05043
G1 X39.839 Y58.237 E0.07568
G1 X40.491 Y58.201 E0.10826
G1 X209.08 Y58.2 E8.5192
G1 X209.778 Y58.21 E8.55403
G1 X210.281 Y58.257 E8.57923
G1 X210.771 Y58.383 E8.60447
G1 X211.235 Y58.585 E8.62972
G1 X211.661 Y58.857 E8.65494
G1 X212.039 Y59.192 E8.68013
G1 X212.359 Y59.583 E8.70534
G1 X212.614 Y60.02 E8.73058
G1 X212.797 Y60.491 E8.75579
G1 X212.904 Y60.985 E8.78101
G1 X212.94 Y61.641 E8.81379
G1 X212.949 Y179.18 E14.67783
G1 X212.939 Y179.876 E14.71256
G1 X212.913 Y180.467 E14.74207
G1 X212.817 Y181.614 E14.7995
G1 X212.707 Y182.417 E14.83993
G1 X212.561 Y183.279 E14.88355
G1 X212.365 Y184.035 E14.92252
G1 X212.169 Y184.718 E14.95797
G1 X211.748 Y185.809 E15.01631
G1 X211.44 Y186.399 E15.04951
G1 X211.033 Y187.037 E15.08727
G1 X210.717 Y187.499 E15.11519
G1 X210.419 Y187.91 E15.14052
G1 X210.065 Y188.37 E15.16948
G1 X209.687 Y188.781 E15.19734
G1 X208.843 Y189.549 E15.25427
G1 X208.159 Y190.008 E15.29536
G1 X207.557 Y190.318 E15.32915
G1 X207.033 Y190.57 E15.35816
G1 X206.421 Y190.83 E15.39133
G1 X205.658 Y191.126 E15.43216
G1 X204.933 Y191.32 E15.4696
G1 X204.056 Y191.525 E15.51454
G1 X203.443 Y191.639 E15.54564
G1 X202.469 Y191.787 E15.59479
G1 X201.636 Y191.8 E15.63636
G1 X48.341 Y191.8 E23.28428
G1 X47.409 Y191.786 E23.33078
G1 X46.547 Y191.654 E23.37429
G1 X45.778 Y191.513 E23.41329
G1 X45.086 Y191.35 E23.44876
G1 X44.431 Y191.177 E23.48256
G1 X43.672 Y190.908 E23.52273
G1 X42.765 Y190.524 E23.57187
G1 X42.265 Y190.281 E23.59961
G1 X41.749 Y190.014 E23.62859
G1 X41.158 Y189.619 E23.66406
G1 X40.382 Y188.963 E23.71475
G1 X39.916 Y188.463 E23.74885
G1 X39.347 Y187.728 E23.79522
G1 X38.86 Y187.033 E23.83756
G1 X38.512 Y186.499 E23.86936
G1 X38.249 Y186.002 E23.89741
G1 X37.779 Y184.888 E23.95774
G1 X37.497 Y183.9 E24.009
G1 X37.33 Y183.254 E24.04229
G1 X37.202 Y182.488 E24.08103
G1 X37.077 Y181.604 E24.12557
G1 X37.051 Y180.296 E24.19084
G1 X37.051 Y62.026 E30.09136
G1 X37.061 Y61.361 E30.12454
G1 X37.109 Y60.858 E30.14975
G1 X37.235 Y60.368 E30.17499
G1 X37.437 Y59.904 E30.20023
G1 X37.709 Y59.478 E30.22545
G1 X38.045 Y59.101 E30.25065
G1 X38.436 Y58.78 E30.27588
G1 F2100 E29.47588
G1 F600 Z1.3
;MESH:v7.bottom.right.stl
G0 F3600 X40.451 Y61.6 Z1.3
;TYPE:WALL-OUTER
G1 F600 Z0.3
G1 F2100 E30.27588
G1 F900 X40.452 Y181.256 E36.24555
G1 X40.651 Y182.55 E36.31086
G1 X40.947 Y183.635 E36.36697
G1 X41.345 Y184.633 E36.42058
G1 X41.942 Y185.53 E36.47433
G1 X42.539 Y186.326 E36.52397
G1 X43.317 Y187.006 E36.57552
G1 X44.304 Y187.5 E36.63059
G1 X45.299 Y187.899 E36.68407
G1 X46.502 Y188.2 E36.74594
G1 X47.702 Y188.4 E36.80664
G1 X202.194 Y188.399 E44.51427
G1 X203.394 Y188.199 E44.57497
G1 X204.598 Y187.899 E44.63687
G1 X205.593 Y187.5 E44.69035
G1 X206.584 Y187.004 E44.74564
G1 X207.362 Y186.325 E44.79716
G1 X207.956 Y185.532 E44.84659
G1 X208.554 Y184.635 E44.90038
G1 X208.953 Y183.635 E44.95409
G1 X209.246 Y182.55 E45.01016
G1 X209.448 Y181.245 E45.07604
G1 X209.549 Y179.838 E45.14642
G1 X209.546 Y124.997 E47.88245
G1 X209.541 Y61.6 E51.04534
G1 X40.451 Y61.6 E59.48127
G0 F3600 X40.451 Y61.8
G0 X40.851 Y62
;TYPE:WALL-INNER
G1 F900 X40.852 Y181.225 E65.42943
G1 X41.043 Y182.467 E65.49212
G1 X41.327 Y183.508 E65.54596
G1 X41.701 Y184.446 E65.59634
G1 X42.269 Y185.299 E65.64746
G1 X42.834 Y186.052 E65.69443
G1 X43.542 Y186.671 E65.74135
G1 X44.468 Y187.135 E65.79302
G1 X45.423 Y187.517 E65.84434
G1 X46.584 Y187.808 E65.90405
G1 X47.735 Y188 E65.96227
G1 X202.161 Y187.999 E73.66661
G1 X203.312 Y187.807 E73.72483
G1 X204.474 Y187.517 E73.78458
G1 X205.429 Y187.135 E73.8359
G1 X206.359 Y186.669 E73.88779
G1 X207.067 Y186.051 E73.93468
G1 X207.629 Y185.301 E73.98144
G1 X208.198 Y184.448 E74.03259
G1 X208.573 Y183.508 E74.08308
G1 X208.854 Y182.467 E74.13688
G1 X209.05 Y181.2 E74.20084
G1 X209.149 Y179.824 E74.26967
G1 X209.146 Y124.997 E77.005
G1 X209.141 Y62 E80.14793
G1 X40.851 Y62 E88.54395
G0 F3600 X41.251 Y62.4
G1 F900 X41.252 Y181.195 E94.47066
G1 X41.435 Y182.383 E94.53063
G1 X41.707 Y183.381 E94.58223
G1 X42.057 Y184.259 E94.62939
G1 X42.595 Y185.068 E94.67786
G1 X43.129 Y185.779 E94.72222
G1 X43.767 Y186.336 E94.76448
G1 X44.632 Y186.77 E94.81276
G1 X45.546 Y187.136 E94.86188
G1 X46.665 Y187.416 E94.91943
G1 X47.768 Y187.6 E94.97522
G1 X202.128 Y187.599 E102.67627
G1 X203.231 Y187.415 E102.73206
G1 X204.351 Y187.136 E102.78964
G1 X205.265 Y186.77 E102.83876
G1 X206.135 Y186.334 E102.88731
G1 X206.772 Y185.777 E102.92953
G1 X207.303 Y185.07 E102.97364
G1 X207.842 Y184.261 E103.02214
G1 X208.193 Y183.382 E103.06936
G1 X208.462 Y182.384 E103.12093
G1 X208.652 Y181.155 E103.18297
G1 X208.749 Y179.81 E103.25025
G1 X208.746 Y124.997 E105.98488
G1 X208.741 Y62.4 E109.10786
G1 X41.251 Y62.4 E117.46397
G0 F3600 X41.631 Y62.78
;TYPE:SKIN
G1 F900 X41.633 Y181.167 E123.37032
G1 X41.807 Y182.303 E123.42765
G1 X42.065 Y183.246 E123.47643
G1 X42.394 Y184.077 E123.52102
G1 X42.907 Y184.847 E123.56718
G1 X43.411 Y185.52 E123.60913
G1 X43.981 Y186.018 E123.64689
G1 X44.788 Y186.422 E123.69191
G1 X45.661 Y186.772 E123.73884
G1 X46.742 Y187.044 E123.79445
G1 X47.802 Y187.22 E123.84806
G1 X202.092 Y187.218 E131.54562
G1 X203.152 Y187.042 E131.59923
G1 X204.219 Y186.776 E131.65409
G1 X205.108 Y186.422 E131.70183
G1 X205.922 Y186.014 E131.74725
G1 X206.492 Y185.519 E131.78492
G1 X206.991 Y184.851 E131.82652
G1 X207.505 Y184.08 E131.87275
G1 X207.837 Y183.246 E131.91753
G1 X208.089 Y182.304 E131.96618
G1 X208.274 Y181.11 E132.02646
G1 X208.369 Y179.797 E132.09214
G1 X208.366 Y124.997 E134.82612
G1 X208.361 Y62.78 E137.93014
G1 X41.631 Y62.78 E146.24833
G0 F3600 X44.762 Y186.184
G1 F900 X42.591 Y184.013 E146.40151
G1 X42.521 Y183.943
G0 F3600 X42.227 Y183.082
G1 F900 X45.724 Y186.58 E146.64827
G0 F3600 X46.48 Y186.77
G1 F900 X42.014 Y182.304 E146.96337
G0 F3600 X41.905 Y181.63
G1 F900 X47.19 Y186.914 E147.33622
G0 F3600 X47.859 Y187.018
G1 F900 X41.832 Y180.991 E147.76146
G0 F3600 X41.832 Y180.425
G1 F900 X48.425 Y187.018 E148.22663
G0 F3600 X48.991 Y187.018
G1 F900 X41.832 Y179.859 E148.73174
G0 F3600 X41.832 Y179.293
G1 F900 X49.556 Y187.018 E149.27674
G0 F3600 X50.122 Y187.018
G1 F900 X41.832 Y178.728 E149.86165
G0 F3600 X41.832 Y178.162
G1 F900 X50.688 Y187.018 E150.48649
G0 F3600 X51.253 Y187.018
G1 F900 X41.832 Y177.596 E151.15123
G0 F3600 X41.832 Y177.031
G1 F900 X51.819 Y187.018 E151.85586
G0 F3600 X52.385 Y187.018
G1 F900 X41.832 Y176.465 E152.60043
G0 F3600 X41.832 Y175.899
G1 F900 X52.95 Y187.018 E153.3849
G0 F3600 X53.516 Y187.018
G1 F900 X41.832 Y175.334 E154.20927
G0 F3600 X41.832 Y174.768
G1 F900 X54.082 Y187.018 E155.07358
G0 F3600 X54.648 Y187.018
G1 F900 X41.832 Y174.202 E155.97781
G0 F3600 X41.832 Y173.637
G1 F900 X55.213 Y187.018 E156.92192
G0 F3600 X55.779 Y187.018
G1 F900 X41.832 Y173.071 E157.90595
G0 F3600 X41.832 Y172.505
G1 F900 X56.345 Y187.018 E158.92992
G0 F3600 X56.91 Y187.018
G1 F900 X41.832 Y171.94 E159.99376
G0 F3600 X41.832 Y171.374
G1 F900 X57.476 Y187.018 E161.09753
G0 F3600 X58.042 Y187.018
G1 F900 X41.832 Y170.808 E162.24123
G0 F3600 X41.832 Y170.243
G1 F900 X58.607 Y187.018 E163.4248
G0 F3600 X59.173 Y187.018
G1 F900 X41.832 Y169.677 E164.6483
G0 F3600 X41.832 Y169.111
G1 F900 X59.739 Y187.018 E165.91173
G0 F3600 X60.304 Y187.018
G1 F900 X41.832 Y168.545 E167.21507
G0 F3600 X41.832 Y167.98
G1 F900 X60.87 Y187.018 E168.5583
G0 F3600 X61.436 Y187.018
G1 F900 X41.832 Y167.414 E169.94147
G0 F3600 X41.832 Y166.848
G1 F900 X62.001 Y187.018 E171.36454
G0 F3600 X62.567 Y187.018
G1 F900 X41.832 Y166.283 E172.8275
G0 F3600 X41.832 Y165.717
G1 F900 X63.133 Y187.018 E174.3304
G0 F3600 X63.699 Y187.018
G1 F900 X41.832 Y165.151 E175.87324
G0 F3600 X41.832 Y164.586
G1 F900 X64.264 Y187.018 E177.45594
G0 F3600 X64.83 Y187.018
G1 F900 X41.832 Y164.02 E179.07857
G0 F3600 X41.832 Y163.454
G1 F900 X65.396 Y187.018 E180.74114
G0 F3600 X65.961 Y187.018
G1 F900 X41.832 Y162.889 E182.44357
G0 F3600 X41.832 Y162.323
G1 F900 X66.527 Y187.018 E184.18593
G0 F3600 X67.093 Y187.018
G1 F900 X41.832 Y161.757 E185.96823
G0 F3600 X41.832 Y161.192
G1 F900 X67.658 Y187.018 E187.7904
G0 F3600 X68.224 Y187.018
G1 F900 X41.832 Y160.626 E189.6525
G0 F3600 X41.832 Y160.06
G1 F900 X68.79 Y187.018 E191.55453
G0 F3600 X69.355 Y187.018
G1 F900 X41.832 Y159.495 E193.49643
G0 F3600 X41.832 Y158.929
G1 F900 X69.921 Y187.018 E195.47826
G0 F3600 X70.487 Y187.018
G1 F900 X41.832 Y158.363 E197.50002
G0 F3600 X41.832 Y157.797
G1 F900 X71.052 Y187.018 E199.56169
G0 F3600 X71.618 Y187.018
G1 F900 X41.832 Y157.232 E201.66325
G0 F3600 X41.832 Y156.666
G1 F900 X72.184 Y187.018 E203.80475
G0 F3600 X72.749 Y187.018
G1 F900 X41.832 Y156.1 E205.98614
G0 F3600 X41.832 Y155.535
G1 F900 X73.315 Y187.018 E208.20744
G0 F3600 X73.881 Y187.018
G1 F900 X41.832 Y154.969 E210.46867
G0 F3600 X41.832 Y154.403
G1 F900 X74.447 Y187.018 E212.76983
G0 F3600 X75.012 Y187.018
G1 F900 X41.832 Y153.838 E215.11086
G0 F3600 X41.832 Y153.272
G1 F900 X75.578 Y187.018 E217.49182
G0 F3600 X76.144 Y187.018
G1 F900 X41.832 Y152.706 E219.91272
G0 F3600 X41.832 Y152.141
G1 F900 X76.709 Y187.018 E222.37348
G0 F3600 X77.275 Y187.018
G1 F900 X41.832 Y151.575 E224.87418
G0 F3600 X41.832 Y151.009
G1 F900 X77.841 Y187.018 E227.41481
G0 F3600 X78.406 Y187.018
G1 F900 X41.832 Y150.444 E229.9953
G0 F3600 X41.832 Y149.878
G1 F900 X78.972 Y187.018 E232.61573
G0 F3600 X79.538 Y187.018
G1 F900 X41.832 Y149.312 E235.27609
G0 F3600 X41.832 Y148.746
G1 F900 X80.103 Y187.018 E237.97635
G0 F3600 X80.669 Y187.018
G1 F900 X41.832 Y148.181 E240.71651
G0 F3600 X41.832 Y147.615
G1 F900 X81.235 Y187.018 E243.4966
G0 F3600 X81.8 Y187.018
G1 F900 X41.832 Y147.049 E246.3166
G0 F3600 X41.832 Y146.484
G1 F900 X82.366 Y187.018 E249.17649
G0 F3600 X82.932 Y187.018
G1 F900 X41.832 Y145.918 E252.07632
G0 F3600 X41.832 Y145.352
G1 F900 X83.497 Y187.018 E255.01604
G0 F3600 X84.063 Y187.018
G1 F900 X41.832 Y144.787 E257.99567
G0 F3600 X41.832 Y144.221
G1 F900 X84.629 Y187.018 E261.01523
G0 F3600 X85.195 Y187.018
G1 F900 X41.832 Y143.655 E264.07472
G0 F3600 X41.832 Y143.09
G1 F900 X85.76 Y187.018 E267.17408
G0 F3600 X86.326 Y187.018
G1 F900 X41.832 Y142.524 E270.31337
G0 F3600 X41.832 Y141.958
G1 F900 X86.892 Y187.018 E273.4926
G0 F3600 X87.457 Y187.018
G1 F900 X41.831 Y141.392 E276.71176
G0 F3600 X41.831 Y140.826
G1 F900 X88.023 Y187.018 E279.97085
G0 F3600 X88.589 Y187.018
G1 F900 X41.831 Y140.26 E283.26988
G0 F3600 X41.831 Y139.695
G1 F900 X89.154 Y187.018 E286.60878
G0 F3600 X89.72 Y187.018
G1 F900 X41.831 Y139.129 E289.9876
G0 F3600 X41.831 Y138.563
G1 F900 X90.286 Y187.018 E293.40637
G0 F3600 X90.851 Y187.018
G1 F900 X41.831 Y137.998 E296.86499
G0 F3600 X41.831 Y137.432
G1 F900 X91.417 Y187.018 E300.36355
G0 F3600 X91.983 Y187.018
G1 F900 X41.831 Y136.866 E303.90205
G0 F3600 X41.831 Y136.301
G1 F900 X92.548 Y187.018 E307.4804
G0 F3600 X93.114 Y187.018
G1 F900 X41.831 Y135.735 E311.0987
G0 F3600 X41.831 Y135.169
G1 F900 X93.68 Y187.018 E314.75692
G0 F3600 X94.246 Y187.018
G1 F900 X41.831 Y134.604 E318.45505
G0 F3600 X41.831 Y134.038
G1 F900 X94.811 Y187.018 E322.19308
G0 F3600 X95.377 Y187.018
G1 F900 X41.831 Y133.472 E325.97103
G0 F3600 X41.831 Y132.907
G1 F900 X95.943 Y187.018 E329.78889
G0 F3600 X96.508 Y187.018
G1 F900 X41.831 Y132.341 E333.64665
G0 F3600 X41.831 Y131.775
G1 F900 X97.074 Y187.018 E337.54434
G0 F3600 X97.64 Y187.018
G1 F900 X41.831 Y131.21 E341.48193
G0 F3600 X41.831 Y130.644
G1 F900 X98.205 Y187.018 E345.45942
G0 F3600 X98.771 Y187.018
G1 F900 X41.831 Y130.078 E349.47685
G0 F3600 X41.831 Y129.512
G1 F900 X99.337 Y187.018 E353.53421
G0 F3600 X99.902 Y187.018
G1 F900 X41.831 Y128.947 E357.63143
G0 F3600 X41.831 Y128.381
G1 F900 X100.468 Y187.018 E361.76859
G0 F3600 X101.034 Y187.018
G1 F900 X41.831 Y127.815 E365.94568
G0 F3600 X41.831 Y127.25
G1 F900 X101.599 Y187.018 E370.16263
G0 F3600 X102.165 Y187.018
G1 F900 X41.831 Y126.684 E374.41952
G0 F3600 X41.831 Y126.118
G1 F900 X102.731 Y187.018 E378.71635
G0 F3600 X103.296 Y187.018
G1 F900 X41.831 Y125.553 E383.05304
G0 F3600 X41.831 Y124.987
G1 F900 X103.862 Y187.018 E387.42966
G0 F3600 X104.428 Y187.018
G1 F900 X41.831 Y124.421 E391.84621
G0 F3600 X41.831 Y123.856
G1 F900 X104.994 Y187.018 E396.30267
G0 F3600 X105.559 Y187.018
G1 F900 X41.831 Y123.29 E400.79902
G0 F3600 X41.831 Y122.724
G1 F900 X106.125 Y187.018 E405.33531
G0 F3600 X106.691 Y187.018
G1 F900 X41.831 Y122.159 E409.9115
G0 F3600 X41.831 Y121.593
G1 F900 X107.256 Y187.018 E414.52759
G0 F3600 X107.822 Y187.018
G1 F900 X41.831 Y121.027 E419.18361
G0 F3600 X41.831 Y120.462
G1 F900 X108.388 Y187.018 E423.87953
G0 F3600 X108.953 Y187.018
G1 F900 X41.831 Y119.896 E428.61535
G0 F3600 X41.831 Y119.33
G1 F900 X109.519 Y187.018 E433.3911
G0 F3600 X110.085 Y187.018
G1 F900 X41.831 Y118.764 E438.20679
G0 F3600 X41.831 Y118.199
G1 F900 X110.65 Y187.018 E443.06234
G0 F3600 X111.216 Y187.018
G1 F900 X41.831 Y117.633 E447.95783
G0 F3600 X41.831 Y117.067
G1 F900 X111.782 Y187.018 E452.89325
G0 F3600 X112.347 Y187.018
G1 F900 X41.831 Y116.502 E457.86854
G0 F3600 X41.831 Y115.936
G1 F900 X112.913 Y187.018 E462.88376
G0 F3600 X113.479 Y187.018
G1 F900 X41.831 Y115.37 E467.93891
G0 F3600 X41.831 Y114.805
G1 F900 X114.045 Y187.018 E473.03396
G0 F3600 X114.61 Y187.018
G1 F900 X41.831 Y114.239 E478.16891
G0 F3600 X41.831 Y113.673
G1 F900 X115.176 Y187.018 E483.3438
G0 F3600 X115.742 Y187.018
G1 F900 X41.831 Y113.108 E488.55858
G0 F3600 X41.831 Y112.542
G1 F900 X116.307 Y187.018 E493.81327
G0 F3600 X116.873 Y187.018
G1 F900 X41.831 Y111.976 E499.10789
G0 F3600 X41.831 Y111.411
G1 F900 X117.439 Y187.018 E504.4424
G0 F3600 X118.004 Y187.018
G1 F900 X41.831 Y110.845 E509.81682
G0 F3600 X41.831 Y110.279
G1 F900 X118.57 Y187.018 E515.23117
G0 F3600 X119.136 Y187.018
G1 F900 X41.831 Y109.713 E520.68546
G0 F3600 X41.831 Y109.148
G1 F900 X119.701 Y187.018 E526.17961
G0 F3600 X120.267 Y187.018
G1 F900 X41.831 Y108.582 E531.71369
G0 F3600 X41.831 Y108.016
G1 F900 X120.833 Y187.018 E537.28771
G0 F3600 X121.398 Y187.018
G1 F900 X41.831 Y107.451 E542.90159
G0 F3600 X41.831 Y106.885
G1 F900 X121.964 Y187.018 E548.5554
G0 F3600 X122.53 Y187.018
G1 F900 X41.831 Y106.319 E554.24915
G0 F3600 X41.831 Y105.754
G1 F900 X123.095 Y187.018 E559.98277
G0 F3600 X123.661 Y187.018
G1 F900 X41.831 Y105.188 E565.75632
G0 F3600 X41.831 Y104.622
G1 F900 X124.227 Y187.018 E571.5698
G0 F3600 X124.793 Y187.018
G1 F900 X41.831 Y104.057 E577.42318
G0 F3600 X41.831 Y103.491
G1 F900 X125.358 Y187.018 E583.31646
G0 F3600 X125.924 Y187.018
G1 F900 X41.831 Y102.925 E589.24968
G0 F3600 X41.831 Y102.359
G1 F900 X126.49 Y187.018 E595.22283
G0 F3600 X127.055 Y187.018
G1 F900 X41.831 Y101.793 E601.23588
G0 F3600 X41.831 Y101.227
G1 F900 X127.621 Y187.018 E607.28886
G0 F3600 X128.187 Y187.018
G1 F900 X41.831 Y100.662 E613.38174
G0 F3600 X41.831 Y100.096
G1 F900 X128.752 Y187.018 E619.51452
G0 F3600 X129.318 Y187.018
G1 F900 X41.831 Y99.53 E625.68724
G0 F3600 X41.831 Y98.965
G1 F900 X129.884 Y187.018 E631.89985
G0 F3600 X130.449 Y187.018
G1 F900 X41.831 Y98.399 E638.15237
G0 F3600 X41.831 Y97.833
G1 F900 X131.015 Y187.018 E644.44482
G0 F3600 X131.581 Y187.018
G1 F900 X41.831 Y97.268 E650.77716
G0 F3600 X41.831 Y96.702
G1 F900 X132.146 Y187.018 E657.14941
G0 F3600 X132.712 Y187.018
G1 F900 X41.831 Y96.136 E663.56159
G0 F3600 X41.831 Y95.571
G1 F900 X133.278 Y187.018 E670.01367
G0 F3600 X133.843 Y187.018
G1 F900 X41.831 Y95.005 E676.50565
G0 F3600 X41.831 Y94.439
G1 F900 X134.409 Y187.018 E683.03756
G0 F3600 X134.975 Y187.018
G1 F900 X41.831 Y93.874 E689.60937
