;FLAVOR:Marlin
;TIME:18400
;Filament used: 13.3484m
;Layer height: 0.2
;MINX:37.051
;MINY:58.2
;MINZ:0.3
;MAXX:212.949
;MAXY:191.8
;MAXZ:7.3
;Generated with Cura_SteamEngine 5.2.1
M140 S60
M105
M190 S60
M104 S200
M105
M109 S200
M82 ;absolute extrusion mode
G28 
G1 Z15 F300
M107
G90
M82
M104 S215
M140 S55
G92 E0
M109 S215
M107
G0 X10 Y20 F6000
G1 Z0.8
G1 F300 X200 E40
G1 F1200 Z2
G92 E0
G28
G92 E0
G92 E0
G1 F2100 E-0.8
;LAYER_COUNT:31
;LAYER:0
M107
G1 F600 Z1.3
G0 F3600 X41.071 Y60.44 Z1.3
;TYPE:SKIRT
G1 F600 Z0.3
G1 F2100 E0
G1 F900 X41.738 Y59.993 E0.04006
G1 X42.322 Y59.692 E0.07284
G1 X43.024 Y59.359 E0.1116
G1 X43.563 Y59.136 E0.1407
G1 X44.247 Y58.872 E0.17728
G1 X45.099 Y58.646 E0.22126
G1 X45.896 Y58.464 E0.26204
G1 X46.531 Y58.349 E0.29424
G1 X47.426 Y58.213 E0.3394
G1 X48.262 Y58.2 E0.38112
G1 X201.557 Y58.2 E8.02903
G1 X202.486 Y58.214 E8.07539
G1 X203.252 Y58.33 E8.11404
G1 X204.13 Y58.49 E8.15856
G1 X204.811 Y58.649 E8.19345
G1 X205.631 Y58.867 E8.23578
G1 X206.333 Y59.135 E8.27327
G1 X206.928 Y59.383 E8.30543
G1 X207.637 Y59.721 E8.34462
G1 X208.17 Y59.999 E8.37461
G1 X208.762 Y60.397 E8.4102
G1 X209.174 Y60.747 E8.43717
G1 X209.6 Y61.129 E8.46572
G1 X209.985 Y61.54 E8.49381
G1 X210.446 Y62.13 E8.53117
G1 X210.764 Y62.567 E8.55813
G1 X211.106 Y63.066 E8.58831
G1 X211.38 Y63.488 E8.61341
G1 X211.644 Y63.987 E8.64158
G1 X211.941 Y64.691 E8.6797
G1 X212.201 Y65.395 E8.71714
G1 X212.371 Y65.987 E8.74787
G1 X212.567 Y66.742 E8.78678
G1 X212.696 Y67.509 E8.82559
G1 X212.817 Y68.385 E8.86971
G1 X212.894 Y69.269 E8.91398
G1 X212.948 Y70.232 E8.9621
G1 X212.949 Y187.908 E14.83298
G1 X212.939 Y188.635 E14.86925
G1 X212.892 Y189.138 E14.89445
G1 X212.766 Y189.628 E14.91969
G1 X212.565 Y190.092 E14.94492
G1 X212.293 Y190.518 E14.97014
G1 X211.958 Y190.897 E14.99537
G1 X211.567 Y191.217 E15.02058
G1 X211.131 Y191.472 E15.04578
G1 X210.66 Y191.656 E15.07101
G1 X210.165 Y191.762 E15.09626
G1 X209.721 Y191.799 E15.11849
G1 X40.919 Y191.8 E23.54006
G1 X40.221 Y191.791 E23.57488
G1 X39.717 Y191.744 E23.60014
G1 X39.227 Y191.619 E23.62537
G1 X38.763 Y191.418 E23.6506
G1 X38.337 Y191.147 E23.67578
G1 X37.958 Y190.812 E23.70102
G1 X37.637 Y190.421 E23.72626
G1 X37.382 Y189.985 E23.75146
G1 X37.198 Y189.514 E23.77669
G1 X37.091 Y189.02 E23.8019
G1 X37.053 Y188.548 E23.82553
G1 X37.051 Y69.356 E29.77204
G1 X37.063 Y68.583 E29.81061
G1 X37.212 Y67.468 E29.86673
G1 X37.335 Y66.733 E29.90391
G1 X37.54 Y65.94 E29.94478
G1 X37.725 Y65.297 E29.97816
G1 X37.992 Y64.602 E30.0153
G1 X38.206 Y64.083 E30.04331
G1 X38.467 Y63.583 E30.07145
G1 X38.864 Y62.963 E30.10818
G1 X39.337 Y62.274 E30.14987
G1 X39.834 Y61.629 E30.1905
G1 X40.21 Y61.222 E30.21814
G1 X41.071 Y60.44 E30.27617
G1 F2100 E29.47617
G1 F600 Z1.3
;MESH:v7.bottom.left.stl
G0 F3600 X40.451 Y68.748 Z1.3
;TYPE:WALL-OUTER
G1 F600 Z0.3
G1 F2100 E30.27617
G1 F900 X40.453 Y188.4 E36.24563
G1 X209.549 Y188.4 E44.68187
G1 X209.549 Y70.479 E50.56497
G1 X209.549 Y70.162 E50.58078
G1 X209.448 Y68.755 E50.65116
G1 X209.247 Y67.448 E50.71713
G1 X208.951 Y66.365 E50.77314
G1 X208.554 Y65.367 E50.82673
G1 X207.956 Y64.47 E50.88051
G1 X207.359 Y63.674 E50.93016
G1 X206.582 Y62.994 E50.98167
G1 X205.595 Y62.5 E51.03673
G1 X204.6 Y62.101 E51.09022
G1 X203.396 Y61.8 E51.15213
G1 X202.196 Y61.6 E51.21283
G1 X47.704 Y61.6 E58.92046
G1 X46.504 Y61.8 E58.98116
G1 X45.301 Y62.101 E59.04303
G1 X44.306 Y62.5 E59.09651
G1 X43.315 Y62.996 E59.1518
G1 X42.537 Y63.674 E59.20328
G1 X41.942 Y64.468 E59.25278
G1 X41.345 Y65.365 E59.30654
G1 X40.947 Y66.365 E59.36024
G1 X40.651 Y67.45 E59.41635
G1 X40.451 Y68.748 E59.48187
G0 F3600 X40.451 Y68.948
G0 X40.851 Y68.778
;TYPE:WALL-INNER
G1 F900 X40.853 Y188 E65.42988
G1 X209.149 Y188 E73.8262
G1 X209.149 Y70.479 E79.68935
G1 X209.149 Y70.176 E79.70446
G1 X209.05 Y68.8 E79.77329
G1 X208.855 Y67.531 E79.83734
G1 X208.571 Y66.492 E79.89108
G1 X208.198 Y65.554 E79.94144
G1 X207.63 Y64.701 E79.99257
G1 X207.064 Y63.948 E80.03957
G1 X206.357 Y63.329 E80.08645
G1 X205.431 Y62.865 E80.13812
G1 X204.476 Y62.483 E80.18944
G1 X203.314 Y62.192 E80.2492
G1 X202.163 Y62 E80.30742
G1 X47.737 Y62 E88.01176
G1 X46.586 Y62.192 E88.06998
G1 X45.425 Y62.483 E88.12969
G1 X44.47 Y62.865 E88.18101
G1 X43.539 Y63.331 E88.23295
G1 X42.832 Y63.948 E88.27976
G1 X42.269 Y64.699 E88.32659
G1 X41.701 Y65.552 E88.37772
G1 X41.327 Y66.492 E88.42819
G1 X41.043 Y67.533 E88.48203
G1 X40.851 Y68.778 E88.54487
G0 F3600 X41.251 Y68.809
G1 F900 X41.253 Y187.6 E94.47138
G1 X208.749 Y187.6 E102.82779
G1 X208.749 Y70.479 E108.67098
G1 X208.749 Y70.19 E108.6854
G1 X208.652 Y68.845 E108.75267
G1 X208.463 Y67.615 E108.81476
G1 X208.191 Y66.619 E108.86627
G1 X207.842 Y65.741 E108.91341
G1 X207.303 Y64.932 E108.96191
G1 X206.769 Y64.221 E109.00627
G1 X206.132 Y63.663 E109.04852
G1 X205.267 Y63.23 E109.09678
G1 X204.353 Y62.864 E109.1459
G1 X203.233 Y62.584 E109.20349
G1 X202.13 Y62.4 E109.25928
G1 X47.77 Y62.4 E116.96034
G1 X46.667 Y62.584 E117.01612
G1 X45.548 Y62.864 E117.07367
G1 X44.634 Y63.23 E117.12279
G1 X43.764 Y63.666 E117.17134
G1 X43.126 Y64.222 E117.21356
G1 X42.595 Y64.93 E117.25772
G1 X42.057 Y65.739 E117.30619
G1 X41.707 Y66.619 E117.35344
G1 X41.435 Y67.616 E117.40499
G1 X41.251 Y68.809 E117.46522
G0 F3600 X41.631 Y68.84
;TYPE:SKIN
G1 F900 X41.633 Y187.22 E123.37122
G1 X208.369 Y187.22 E131.68971
G1 X208.369 Y70.48 E137.51389
G1 X208.369 Y70.203 E137.52771
G1 X208.274 Y68.89 E137.59339
G1 X208.091 Y67.693 E137.6538
G1 X207.833 Y66.754 E137.70239
G1 X207.505 Y65.923 E137.74696
G1 X206.992 Y65.153 E137.79312
G1 X206.487 Y64.48 E137.8351
G1 X205.918 Y63.982 E137.87282
G1 X205.111 Y63.578 E137.91785
G1 X204.238 Y63.228 E137.96477
G1 X203.156 Y62.956 E138.02043
G1 X202.096 Y62.781 E138.07403
G1 X47.806 Y62.78 E145.77159
G1 X46.747 Y62.956 E145.82515
G1 X45.68 Y63.224 E145.88003
G1 X44.791 Y63.578 E145.92777
G1 X43.976 Y63.986 E145.97324
G1 X43.409 Y64.479 E146.01073
G1 X42.906 Y65.15 E146.05257
G1 X42.394 Y65.919 E146.09866
G1 X42.063 Y66.754 E146.14347
G1 X41.807 Y67.697 E146.19222
G1 X41.631 Y68.84 E146.24992
G0 F3600 X42.203 Y187.019
G1 F900 X41.832 Y186.647 E146.27613
G0 F3600 X41.832 Y186.082
G1 F900 X42.769 Y187.019 E146.34224
G0 F3600 X43.335 Y187.019
G1 F900 X41.832 Y185.516 E146.44828
G0 F3600 X41.832 Y184.95
G1 F900 X43.9 Y187.019 E146.59423
G0 F3600 X44.466 Y187.019
G1 F900 X41.832 Y184.385 E146.78007
G0 F3600 X41.832 Y183.819
G1 F900 X45.032 Y187.019 E147.00585
G0 F3600 X45.597 Y187.019
G1 F900 X41.832 Y183.253 E147.27152
G0 F3600 X41.832 Y182.688
G1 F900 X46.163 Y187.019 E147.5771
G0 F3600 X46.729 Y187.019
G1 F900 X41.832 Y182.122 E147.92261
G0 F3600 X41.832 Y181.556
G1 F900 X47.294 Y187.019 E148.30802
G0 F3600 X47.86 Y187.019
G1 F900 X41.832 Y180.991 E148.73333
G0 F3600 X41.832 Y180.425
G1 F900 X48.426 Y187.019 E149.19857
G0 F3600 X48.991 Y187.019
G1 F900 X41.832 Y179.859 E149.70371
G0 F3600 X41.832 Y179.293
G1 F900 X49.557 Y187.019 E150.24878
G0 F3600 X50.123 Y187.019
G1 F900 X41.832 Y178.728 E150.83376
G0 F3600 X41.832 Y178.162
G1 F900 X50.688 Y187.019 E151.45863
G0 F3600 X51.254 Y187.019
G1 F900 X41.832 Y177.596 E152.12344
G0 F3600 X41.832 Y177.031
G1 F900 X51.82 Y187.019 E152.82815
G0 F3600 X52.386 Y187.019
G1 F900 X41.832 Y176.465 E153.57279
G0 F3600 X41.832 Y175.899
G1 F900 X52.951 Y187.019 E154.35733
G0 F3600 X53.517 Y187.019
G1 F900 X41.832 Y175.334 E155.18177
G0 F3600 X41.832 Y174.768
G1 F900 X54.083 Y187.019 E156.04615
G0 F3600 X54.648 Y187.019
G1 F900 X41.832 Y174.202 E156.95042
G0 F3600 X41.832 Y173.637
G1 F900 X55.214 Y187.019 E157.89459
G0 F3600 X55.78 Y187.019
G1 F900 X41.832 Y173.071 E158.8787
G0 F3600 X41.832 Y172.505
G1 F900 X56.345 Y187.019 E159.9027
G0 F3600 X56.911 Y187.019
G1 F900 X41.832 Y171.94 E160.96661
G0 F3600 X41.832 Y171.374
G1 F900 X57.477 Y187.019 E162.07045
G0 F3600 X58.042 Y187.019
G1 F900 X41.832 Y170.808 E163.21419
G0 F3600 X41.832 Y170.243
G1 F900 X58.608 Y187.019 E164.39782
G0 F3600 X59.174 Y187.019
G1 F900 X41.832 Y169.677 E165.6214
G0 F3600 X41.832 Y169.111
G1 F900 X59.739 Y187.019 E166.88487
G0 F3600 X60.305 Y187.019
G1 F900 X41.832 Y168.545 E168.18827
G0 F3600 X41.832 Y167.98
G1 F900 X60.871 Y187.019 E169.53158
G0 F3600 X61.436 Y187.019
G1 F900 X41.832 Y167.414 E170.91478
G0 F3600 X41.832 Y166.848
G1 F900 X62.002 Y187.019 E172.33792
G0 F3600 X62.568 Y187.019
G1 F900 X41.832 Y166.283 E173.80095
G0 F3600 X41.832 Y165.717
G1 F900 X63.134 Y187.019 E175.30392
G0 F3600 X63.699 Y187.019
G1 F900 X41.832 Y165.151 E176.8468
G0 F3600 X41.832 Y164.586
G1 F900 X64.265 Y187.019 E178.42956
G0 F3600 X64.831 Y187.019
G1 F900 X41.832 Y164.02 E180.05227
G0 F3600 X41.832 Y163.454
G1 F900 X65.396 Y187.019 E181.71487
G0 F3600 X65.962 Y187.019
G1 F900 X41.832 Y162.889 E183.41737
G0 F3600 X41.832 Y162.323
G1 F900 X66.528 Y187.019 E185.15981
G0 F3600 X67.093 Y187.019
G1 F900 X41.832 Y161.757 E186.94214
G0 F3600 X41.832 Y161.192
G1 F900 X67.659 Y187.019 E188.76438
G0 F3600 X68.225 Y187.019
G1 F900 X41.832 Y160.626 E190.62655
G0 F3600 X41.832 Y160.06
G1 F900 X68.79 Y187.019 E192.52861
G0 F3600 X69.356 Y187.019
G1 F900 X41.832 Y159.495 E194.47058
G0 F3600 X41.832 Y158.929
G1 F900 X69.922 Y187.019 E196.45248
G0 F3600 X70.487 Y187.019
G1 F900 X41.832 Y158.363 E198.47428
G0 F3600 X41.832 Y157.797
G1 F900 X71.053 Y187.019 E200.53602
G0 F3600 X71.619 Y187.019
G1 F900 X41.832 Y157.232 E202.63765
G0 F3600 X41.832 Y156.666
G1 F900 X72.184 Y187.019 E204.77918
G0 F3600 X72.75 Y187.019
G1 F900 X41.832 Y156.1 E206.96065
G0 F3600 X41.832 Y155.535
G1 F900 X73.316 Y187.019 E209.18202
G0 F3600 X73.882 Y187.019
G1 F900 X41.832 Y154.969 E211.44332
G0 F3600 X41.832 Y154.403
G1 F900 X74.447 Y187.019 E213.74452
G0 F3600 X75.013 Y187.019
G1 F900 X41.832 Y153.838 E216.08562
G0 F3600 X41.832 Y153.272
G1 F900 X75.579 Y187.019 E218.46665
G0 F3600 X76.144 Y187.019
G1 F900 X41.832 Y152.706 E220.88758
G0 F3600 X41.832 Y152.141
G1 F900 X76.71 Y187.019 E223.34841
G0 F3600 X77.276 Y187.019
G1 F900 X41.832 Y151.575 E225.84918
G0 F3600 X41.832 Y151.009
G1 F900 X77.841 Y187.019 E228.38984
G0 F3600 X78.407 Y187.019
G1 F900 X41.832 Y150.444 E230.97041
G0 F3600 X41.832 Y149.878
G1 F900 X78.973 Y187.019 E233.59091
G0 F3600 X79.538 Y187.019
G1 F900 X41.832 Y149.312 E236.2513
G0 F3600 X41.832 Y148.746
G1 F900 X80.104 Y187.019 E238.95163
G0 F3600 X80.67 Y187.019
G1 F900 X41.832 Y148.181 E241.69187
G0 F3600 X41.831 Y147.614
G1 F900 X81.235 Y187.019 E244.47207
G0 F3600 X81.801 Y187.019
G1 F900 X41.831 Y147.049 E247.29217
G0 F3600 X41.831 Y146.483
G1 F900 X82.367 Y187.019 E250.1522
G0 F3600 X82.933 Y187.019
G1 F900 X41.831 Y145.917 E253.05217
G0 F3600 X41.831 Y145.352
G1 F900 X83.498 Y187.019 E255.992
G0 F3600 X84.064 Y187.019
G1 F900 X41.831 Y144.786 E258.97177
G0 F3600 X41.831 Y144.22
G1 F900 X84.63 Y187.019 E261.99147
G0 F3600 X85.195 Y187.019
G1 F900 X41.831 Y143.655 E265.05103
G0 F3600 X41.831 Y143.089
G1 F900 X85.761 Y187.019 E268.15053
G0 F3600 X86.327 Y187.019
G1 F900 X41.831 Y142.523 E271.28996
G0 F3600 X41.831 Y141.958
G1 F900 X86.892 Y187.019 E274.46926
G0 F3600 X87.458 Y187.019
G1 F900 X41.831 Y141.392 E277.68849
G0 F3600 X41.831 Y140.826
G1 F900 X88.024 Y187.019 E280.94766
G0 F3600 X88.589 Y187.019
G1 F900 X41.831 Y140.26 E284.24672
G0 F3600 X41.831 Y139.695
G1 F900 X89.155 Y187.019 E287.58568
G0 F3600 X89.721 Y187.019
G1 F900 X41.831 Y139.129 E290.96458
G0 F3600 X41.831 Y138.563
G1 F900 X90.286 Y187.019 E294.38338
G0 F3600 X90.852 Y187.019
G1 F900 X41.831 Y137.998 E297.84208
G0 F3600 X41.831 Y137.432
G1 F900 X91.418 Y187.019 E301.34071
G0 F3600 X91.983 Y187.019
G1 F900 X41.831 Y136.866 E304.87924
G0 F3600 X41.831 Y136.301
G1 F900 X92.549 Y187.019 E308.45767
G0 F3600 X93.115 Y187.019
G1 F900 X41.831 Y135.735 E312.07603
G0 F3600 X41.831 Y135.169
G1 F900 X93.681 Y187.019 E315.73433
G0 F3600 X94.246 Y187.019
G1 F900 X41.831 Y134.604 E319.43249
G0 F3600 X41.831 Y134.038
G1 F900 X94.812 Y187.019 E323.17058
G0 F3600 X95.378 Y187.019
G1 F900 X41.831 Y133.472 E326.94861
G0 F3600 X41.831 Y132.907
G1 F900 X95.943 Y187.019 E330.76651
G0 F3600 X96.509 Y187.019
G1 F900 X41.831 Y132.341 E334.62434
G0 F3600 X41.831 Y131.775
G1 F900 X97.075 Y187.019 E338.5221
G0 F3600 X97.64 Y187.019
G1 F900 X41.831 Y131.21 E342.45972
G0 F3600 X41.831 Y130.644
G1 F900 X98.206 Y187.019 E346.43729
G0 F3600 X98.772 Y187.019
G1 F900 X41.831 Y130.078 E350.45478
G0 F3600 X41.831 Y129.512
G1 F900 X99.337 Y187.019 E354.51217
G0 F3600 X99.903 Y187.019
G1 F900 X41.831 Y128.947 E358.60947
G0 F3600 X41.831 Y128.381
G1 F900 X100.469 Y187.019 E362.7467
G0 F3600 X101.034 Y187.019
G1 F900 X41.831 Y127.815 E366.92382
G0 F3600 X41.831 Y127.25
G1 F900 X101.6 Y187.019 E371.14085
G0 F3600 X102.166 Y187.019
G1 F900 X41.831 Y126.684 E375.39781
G0 F3600 X41.831 Y126.118
G1 F900 X102.732 Y187.019 E379.6947
G0 F3600 X103.297 Y187.019
G1 F900 X41.831 Y125.553 E384.03146
G0 F3600 X41.831 Y124.987
G1 F900 X103.863 Y187.019 E388.40815
G0 F3600 X104.429 Y187.019
G1 F900 X41.831 Y124.421 E392.82478
G0 F3600 X41.831 Y123.856
G1 F900 X104.994 Y187.019 E397.28127
G0 F3600 X105.56 Y187.019
G1 F900 X41.831 Y123.29 E401.7777
G0 F3600 X41.831 Y122.724
G1 F900 X106.126 Y187.019 E406.31406
G0 F3600 X106.691 Y187.019
G1 F900 X41.831 Y122.159 E410.89028
G0 F3600 X41.831 Y121.593
G1 F900 X107.257 Y187.019 E415.50644
G0 F3600 X107.823 Y187.019
G1 F900 X41.831 Y121.027 E420.16253
G0 F3600 X41.831 Y120.462
G1 F900 X108.388 Y187.019 E424.85848
G0 F3600 X108.954 Y187.019
G1 F900 X41.831 Y119.896 E429.59437
G0 F3600 X41.831 Y119.33
G1 F900 X109.52 Y187.019 E434.3702
G0 F3600 X110.085 Y187.019
G1 F900 X41.831 Y118.764 E439.18592
G0 F3600 X41.831 Y118.199
G1 F900 X110.651 Y187.019 E444.04155
G0 F3600 X111.217 Y187.019
G1 F900 X41.831 Y117.633 E448.9371
G0 F3600 X41.831 Y117.067
G1 F900 X111.782 Y187.019 E453.87256
G0 F3600 X112.348 Y187.019
G1 F900 X41.831 Y116.502 E458.84791
G0 F3600 X41.831 Y115.936
G1 F900 X112.914 Y187.019 E463.8632
G0 F3600 X113.48 Y187.019
G1 F900 X41.831 Y115.37 E468.91843
G0 F3600 X41.831 Y114.805
G1 F900 X114.045 Y187.019 E474.01352
G0 F3600 X114.611 Y187.019
G1 F900 X41.831 Y114.239 E479.14854
G0 F3600 X41.831 Y113.673
G1 F900 X115.177 Y187.019 E484.32349
G0 F3600 X115.742 Y187.019
G1 F900 X41.831 Y113.108 E489.53831
G0 F3600 X41.831 Y112.542
G1 F900 X116.308 Y187.019 E494.79307
G0 F3600 X116.874 Y187.019
G1 F900 X41.831 Y111.976 E500.08776
G0 F3600 X41.831 Y111.411
G1 F900 X117.439 Y187.019 E505.42231
G0 F3600 X118.005 Y187.019
G1 F900 X41.831 Y110.845 E510.7968
G0 F3600 X41.831 Y110.279
G1 F900 X118.571 Y187.019 E516.21122
G0 F3600 X119.136 Y187.019
G1 F900 X41.831 Y109.713 E521.66554
G0 F3600 X41.831 Y109.148
G1 F900 X119.702 Y187.019 E527.15976
G0 F3600 X120.268 Y187.019
G1 F900 X41.831 Y108.582 E532.69391
G0 F3600 X41.831 Y108.016
G1 F900 X120.833 Y187.019 E538.26797
G0 F3600 X121.399 Y187.019
G1 F900 X41.831 Y107.45 E543.88195
G0 F3600 X41.831 Y106.884
G1 F900 X121.965 Y187.019 E549.53588
G0 F3600 X122.53 Y187.019
G1 F900 X41.831 Y106.319 E555.22966
G0 F3600 X41.831 Y105.753
G1 F900 X123.096 Y187.019 E560.96338
G0 F3600 X123.662 Y187.019
G1 F900 X41.831 Y105.187 E566.73704
G0 F3600 X41.831 Y104.622
G1 F900 X124.228 Y187.019 E572.55059
G0 F3600 X124.793 Y187.019
G1 F900 X41.831 Y104.056 E578.40404
G0 F3600 X41.831 Y103.49
G1 F900 X125.359 Y187.019 E584.29743
G0 F3600 X125.925 Y187.019
G1 F900 X41.831 Y102.925 E590.23071
G0 F3600 X41.831 Y102.359
G1 F900 X126.49 Y187.019 E596.2039
G0 F3600 X127.056 Y187.019
G1 F900 X41.831 Y101.793 E602.21702
G0 F3600 X41.831 Y101.227
G1 F900 X127.622 Y187.019 E608.27007
G0 F3600 X128.187 Y187.019
G1 F900 X41.831 Y100.662 E614.36299
G0 F3600 X41.831 Y100.096
G1 F900 X128.753 Y187.019 E620.49584
G0 F3600 X129.319 Y187.019
G1 F900 X41.831 Y99.53 E626.66863
G0 F3600 X41.831 Y98.965
G1 F900 X129.884 Y187.019 E632.88128
G0 F3600 X130.45 Y187.019
G1 F900 X41.831 Y98.399 E639.13386
G0 F3600 X41.831 Y97.833
G1 F900 X131.016 Y187.019 E645.42638
G0 F3600 X131.581 Y187.019
G1 F900 X41.831 Y97.268 E651.75876
G0 F3600 X41.831 Y96.702
G1 F900 X132.147 Y187.019 E658.13108
G0 F3600 X132.713 Y187.019
