;FLAVOR:Marlin
;TIME:2548
;Filament used: 0.612417m
;Layer height: 0.08
;MINX:84.777
;MINY:114.327
;MINZ:0.36
;MAXX:170.239
;MAXY:140.672
;MAXZ:2.34
;Generated with Cura_SteamEngine 4.8.0
M140 S80
M105
M190 S80
M104 S210
M105
M109 S210
M82 ;absolute extrusion mode
G28 ;Home
G1 Z15.0 F6000;Move platform down 15 mm
;Prime the extruder 
G92 E0
G1 F200 E3
G92 E0
G92 E0
G92 E0
G1 F2100 E-0.8
;LAYER_COUNT:16
;LAYER:-10
M107 P1
G0 F7200 X85.792 Y129.459 Z0.36
;TYPE:SUPPORT-INTERFACE
G1 F2100 E0
G1 F900 X85.905 Y129.393 E0.01567
G1 X86.832 Y129.126 E0.13118
G1 X86.83 Y129.118 E0.13216
G1 X86.876 Y129.105 E0.13789
G1 X96.575 Y125.87 E1.36211
G1 X96.845 Y125.793 E1.39572
G1 X97.5 Y125.657 E1.47582
G1 X97.497 Y125.648 E1.47696
G1 X97.794 Y125.582 E1.51339
G1 X98.682 Y125.299 E1.62499
G1 X99.651 Y124.885 E1.75116
G1 X99.858 Y124.784 E1.77873
G1 X100.023 Y124.721 E1.79988
G1 X106.082 Y122.7 E2.56466
G1 X106.323 Y122.631 E2.59467
G1 X106.364 Y122.623 E2.59968
G1 X106.531 Y122.604 E2.6198
G1 X106.666 Y122.599 E2.63598
G1 X139.437 Y122.599 E6.55986
G1 X140.357 Y122.558 E6.67013
G1 X141.278 Y122.433 E6.78142
G1 X142.185 Y122.227 E6.89278
G1 X143.07 Y121.941 E7.00415
G1 X143.926 Y121.576 E7.11557
G1 X144.746 Y121.137 E7.22694
G1 X145.523 Y120.626 E7.33829
G1 X146.252 Y120.048 E7.44969
G1 X146.925 Y119.408 E7.56089
G1 X147.462 Y118.803 E7.65775
G1 X147.668 Y118.551 E7.69672
G1 X147.879 Y118.317 E7.73445
G1 X148.118 Y118.102 E7.77294
G1 X149.599 Y116.886 E8.00238
G1 X149.857 Y116.695 E8.04082
G1 X150.094 Y116.553 E8.0739
G1 X151.81 Y115.635 E8.30692
G1 X152.108 Y115.494 E8.3464
G1 X152.367 Y115.403 E8.37927
G1 X154.256 Y114.829 E8.61566
G1 X154.507 Y114.767 E8.64662
G1 X154.854 Y114.715 E8.68863
G1 X156.751 Y114.528 E8.91687
G1 X157.064 Y114.513 E8.95439
G1 X157.377 Y114.528 E8.99191
G1 X159.274 Y114.715 E9.22015
G1 X159.621 Y114.767 E9.26217
G1 X159.872 Y114.829 E9.29312
G1 X161.761 Y115.403 E9.52952
G1 X162.02 Y115.494 E9.56239
G1 X162.318 Y115.635 E9.60186
G1 X164.034 Y116.553 E9.83488
G1 X164.271 Y116.695 E9.86796
G1 X164.529 Y116.886 E9.9064
G1 X166.01 Y118.102 E10.13585
G1 X166.249 Y118.317 E10.17434
G1 X166.46 Y118.551 E10.21207
G1 X167.671 Y120.027 E10.44067
G1 X167.871 Y120.296 E10.4808
G1 X168.011 Y120.531 E10.51356
G1 X168.927 Y122.244 E10.74615
G1 X169.07 Y122.545 E10.78605
G1 X169.159 Y122.796 E10.81794
G1 X169.736 Y124.698 E11.05592
G1 X169.8 Y124.956 E11.08775
G1 X169.847 Y125.262 E11.12482
G1 X170.038 Y127.194 E11.35728
G1 X170.052 Y127.501 E11.39408
G1 X170.038 Y127.807 E11.43076
G1 X169.848 Y129.732 E11.66237
G1 X169.8 Y130.045 E11.70028
G1 X169.736 Y130.304 E11.73223
G1 X169.161 Y132.198 E11.96923
G1 X169.07 Y132.457 E12.0021
G1 X168.933 Y132.747 E12.0405
G1 X168.011 Y134.471 E12.2746
G1 X167.869 Y134.708 E12.30768
G1 X167.681 Y134.962 E12.34551
G1 X166.462 Y136.447 E12.57556
G1 X166.248 Y136.685 E12.61388
G1 X166.01 Y136.899 E12.6522
G1 X164.529 Y138.115 E12.88165
G1 X164.275 Y138.304 E12.91956
G1 X164.024 Y138.454 E12.95457
G1 X162.308 Y139.371 E13.18753
G1 X162.029 Y139.502 E13.22444
G1 X161.761 Y139.597 E13.25849
G1 X159.872 Y140.171 E13.49488
G1 X159.621 Y140.233 E13.52584
G1 X159.275 Y140.285 E13.56773
G1 X157.377 Y140.472 E13.79609
G1 X157.064 Y140.487 E13.83361
G1 X156.751 Y140.472 E13.87113
G1 X154.853 Y140.285 E14.09949
G1 X154.507 Y140.233 E14.14139
G1 X154.256 Y140.171 E14.17234
G1 X152.367 Y139.597 E14.40874
G1 X152.099 Y139.502 E14.44278
G1 X151.82 Y139.371 E14.47969
G1 X150.104 Y138.454 E14.71265
G1 X149.853 Y138.304 E14.74767
G1 X149.599 Y138.115 E14.78557
G1 X148.118 Y136.899 E15.01502
G1 X147.88 Y136.685 E15.05334
G1 X147.659 Y136.44 E15.09285
G1 X147.454 Y136.19 E15.13156
G1 X146.838 Y135.505 E15.24187
G1 X146.157 Y134.873 E15.35311
G1 X145.422 Y134.303 E15.46448
G1 X144.639 Y133.801 E15.57585
G1 X143.814 Y133.372 E15.68719
G1 X142.954 Y133.017 E15.79859
G1 X142.066 Y132.742 E15.9099
G1 X141.157 Y132.545 E16.02126
G1 X140.235 Y132.432 E16.13249
G1 X139.434 Y132.401 E16.22847
G1 X86.709 Y132.401 E22.54157
G1 X86.427 Y132.389 E22.57537
G1 X86.349 Y132.373 E22.5849
G1 X86.181 Y132.308 E22.60647
G1 X85.959 Y132.226 E22.63481
G1 X85.819 Y132.163 E22.65319
G1 X85.579 Y131.971 E22.68999
G1 X85.457 Y131.864 E22.70942
G1 X85.288 Y131.702 E22.73745
G1 X85.22 Y131.612 E22.75096
G1 X85.053 Y131.173 E22.8072
G1 X84.988 Y130.921 E22.83836
G1 X84.979 Y130.831 E22.84919
G1 X84.993 Y130.679 E22.86747
G1 X85.018 Y130.549 E22.88332
G1 X85.088 Y130.318 E22.91222
G1 X85.173 Y130.079 E22.94259
G1 X85.225 Y129.982 E22.95577
G1 X85.549 Y129.657 E23.01072
G1 X85.578 Y129.631 E23.01538
G1 X85.792 Y129.459 E23.04826
G0 F7200 X86.4 Y129.25
G1 F900 X86.4 Y132.383 E23.42339
G0 F7200 X88 Y132.401
G1 F900 X88 Y128.73 E23.86294
G0 F7200 X89.6 Y128.196
G1 F900 X89.6 Y132.401 E24.36644
G0 F7200 X91.2 Y132.401
G1 F900 X91.2 Y127.662 E24.93387
G0 F7200 X92.8 Y127.129
G1 F900 X92.8 Y132.401 E25.56512
G0 F7200 X94.4 Y132.401
G1 F900 X94.4 Y126.595 E26.26031
G0 F7200 X96 Y126.061
G1 F900 X96 Y132.401 E27.01944
G0 F7200 X97.6 Y132.401
G1 F900 X97.6 Y125.625 E27.83077
G0 F7200 X99.2 Y125.077
G1 F900 X99.2 Y132.401 E28.70772
G0 F7200 X100.8 Y132.401
G1 F900 X100.8 Y124.461 E29.65843
G0 F7200 X102.4 Y123.928
G1 F900 X102.4 Y132.401 E30.67296
G0 F7200 X104 Y132.401
G1 F900 X104 Y123.394 E31.75142
G0 F7200 X105.6 Y122.86
G1 F900 X105.6 Y132.401 E32.89383
G0 F7200 X107.2 Y132.401
G1 F900 X107.2 Y122.599 E34.06749
G0 F7200 X108.8 Y122.599
G1 F900 X108.8 Y132.401 E35.24114
G0 F7200 X110.4 Y132.401
G1 F900 X110.4 Y122.599 E36.4148
G0 F7200 X112 Y122.599
G1 F900 X112 Y132.401 E37.58846
G0 F7200 X113.6 Y132.401
G1 F900 X113.6 Y122.599 E38.76212
G0 F7200 X115.2 Y122.599
G1 F900 X115.2 Y132.401 E39.93577
G0 F7200 X116.8 Y132.401
G1 F900 X116.8 Y122.599 E41.10943
G0 F7200 X118.4 Y122.599
G1 F900 X118.4 Y132.401 E42.28309
G0 F7200 X120 Y132.401
G1 F900 X120 Y122.599 E43.45674
G0 F7200 X121.6 Y122.599
G1 F900 X121.6 Y132.401 E44.6304
G0 F7200 X123.2 Y132.401
G1 F900 X123.2 Y122.599 E45.80406
G0 F7200 X124.8 Y122.599
G1 F900 X124.8 Y132.401 E46.97771
G0 F7200 X126.4 Y132.401
G1 F900 X126.4 Y122.599 E48.15137
G0 F7200 X128 Y122.599
G1 F900 X128 Y132.401 E49.32503
G0 F7200 X129.6 Y132.401
G1 F900 X129.6 Y122.599 E50.49869
G0 F7200 X131.2 Y122.599
G1 F900 X131.2 Y132.401 E51.67234
G0 F7200 X132.8 Y132.401
G1 F900 X132.8 Y122.599 E52.846
G0 F7200 X134.4 Y122.599
G1 F900 X134.4 Y132.401 E54.01966
G0 F7200 X136 Y132.401
G1 F900 X136 Y122.599 E55.19331
G0 F7200 X137.6 Y122.599
G1 F900 X137.6 Y132.401 E56.36697
G0 F7200 X139.2 Y132.401
G1 F900 X139.2 Y122.599 E57.54063
G0 F7200 X140.8 Y122.497
G1 F900 X140.8 Y132.501 E58.73847
G0 F7200 X142.4 Y132.845
G1 F900 X142.4 Y122.157 E60.01821
G0 F7200 X144 Y121.536
G1 F900 X144 Y133.468 E61.44691
G0 F7200 X145.6 Y134.441
G1 F900 X145.6 Y120.564 E63.10849
G0 F7200 X147.2 Y119.098
G1 F900 X147.2 Y135.907 E65.12114
G0 F7200 X148.8 Y137.458
G1 F900 X148.8 Y117.542 E67.50582
G0 F7200 X150.4 Y116.389
G1 F900 X150.4 Y138.612 E70.16672
G0 F7200 X152 Y139.455
G1 F900 X152 Y115.545 E73.02962
G0 F7200 X153.6 Y115.028
G1 F900 X153.6 Y139.971 E76.01621
G0 F7200 X155.2 Y140.319
G1 F900 X155.2 Y114.68 E79.08613
G0 F7200 X156.8 Y114.525
G1 F900 X156.8 Y140.474 E82.19317
G0 F7200 X158.4 Y140.372
G1 F900 X158.4 Y114.629 E85.27555
G0 F7200 X160 Y114.868
G1 F900 X160 Y140.133 E88.30069
G0 F7200 X161.6 Y139.646
G1 F900 X161.6 Y115.355 E91.20921
G0 F7200 X163.2 Y116.107
G1 F900 X163.2 Y138.895 E93.93777
G0 F7200 X164.8 Y137.893
G1 F900 X164.8 Y117.109 E96.42637
G0 F7200 X166.4 Y118.485
G1 F900 X166.4 Y136.516 E98.58534
G0 F7200 X168 Y134.49
G1 F900 X168 Y120.513 E100.25889
G0 F7200 X169.6 Y124.25
G1 F900 X169.6 Y130.752 E101.03742
G0 F600 X169.6 Y130.752 Z0.48
G0 F7200 X168.937 Y122.268
;TIME_ELAPSED:64.183575
;LAYER:-9
;TYPE:SUPPORT
G1 F900 X162.293 Y115.623 E101.41246
G1 X162.019 Y115.494 E101.42455
G1 X161.76 Y115.402 E101.43552
G1 X160.175 Y114.921 E101.50163
G1 X169.64 Y124.385 E102.03585
G1 X169.735 Y124.698 E102.0489
G1 X169.798 Y124.955 E102.05947
G1 X169.846 Y125.261 E102.07183
G1 X169.928 Y126.087 E102.10496
G1 X158.477 Y114.636 E102.7513
G1 X157.375 Y114.527 E102.7955
G1 X157.063 Y114.512 E102.80797
G1 X156.945 Y114.518 E102.81268
G1 X170.046 Y127.62 E103.55219
G1 X170.037 Y127.807 E103.55966
G1 X169.928 Y128.916 E103.60414
G1 X155.649 Y114.636 E104.41013
G1 X154.853 Y114.715 E104.44206
G1 X154.506 Y114.766 E104.45606
G1 X154.393 Y114.795 E104.46071
G1 X169.768 Y130.17 E105.32854
G1 X169.735 Y130.304 E105.33405
G1 X169.444 Y131.26 E105.37394
G1 X153.302 Y115.118 E106.28506
G1 X152.365 Y115.402 E106.32414
G1 X152.223 Y115.453 E106.33016
G1 X169.11 Y132.34 E107.28334
G1 X169.069 Y132.456 E107.28825
G1 X168.932 Y132.746 E107.30105
G1 X168.643 Y133.288 E107.32556
G1 X151.276 Y115.92 E108.30586
G1 X150.354 Y116.413 E108.34759
G1 X168.15 Y134.209 E109.35207
G1 X168.01 Y134.471 E109.36393
G1 X167.868 Y134.708 E109.37496
G1 X167.679 Y134.961 E109.38756
G1 X167.594 Y135.067 E109.39298
G1 X149.497 Y116.97 E110.41446
G1 X148.72 Y117.607 E110.45456
G1 X166.957 Y135.844 E111.48393
G1 X166.461 Y136.447 E111.51509
G1 X166.312 Y136.613 E111.524
G1 X147.95 Y118.252 E112.5604
G1 X147.877 Y118.316 E112.56427
G1 X147.667 Y118.551 E112.57685
G1 X147.46 Y118.803 E112.58987
G1 X147.284 Y119 E112.60041
G1 X165.555 Y137.271 E113.63171
G1 X164.778 Y137.908 E113.67181
G1 X146.593 Y119.723 E114.69825
G1 X146.251 Y120.047 E114.71705
G1 X145.834 Y120.378 E114.7383
G1 X163.949 Y138.493 E115.76079
G1 X163.027 Y138.986 E115.80252
G1 X145.007 Y120.965 E116.81967
G1 X144.745 Y121.136 E116.83216
G1 X144.106 Y121.479 E116.86111
G1 X162.097 Y139.469 E117.87657
G1 X162.027 Y139.502 E117.87966
G1 X161.76 Y139.597 E117.89097
G1 X161.031 Y139.818 E117.92137
G1 X143.129 Y121.916 E118.93184
G1 X143.069 Y121.941 E118.93443
G1 X142.184 Y122.226 E118.97154
G1 X142.055 Y122.256 E118.97683
G1 X159.946 Y140.147 E119.98667
G1 X159.871 Y140.171 E119.98982
G1 X159.62 Y140.232 E120.00012
G1 X159.273 Y140.285 E120.01413
G1 X158.723 Y140.338 E120.03619
G1 X140.872 Y122.487 E121.04378
G1 X140.355 Y122.557 E121.0646
G1 X139.563 Y122.593 E121.09624
G1 X157.436 Y140.466 E122.10507
G1 X157.376 Y140.472 E122.10748
G1 X157.063 Y140.487 E122.11998
G1 X156.75 Y140.472 E122.13249
G1 X155.949 Y140.393 E122.16462
G1 X138.155 Y122.598 E123.16901
G1 X136.741 Y122.598 E123.22545
G1 X154.331 Y140.189 E124.21833
G1 X154.255 Y140.171 E124.22145
G1 X152.365 Y139.597 E124.30029
G1 X152.302 Y139.574 E124.30296
G1 X135.326 Y122.598 E125.26116
G1 X133.912 Y122.598 E125.3176
G1 X146.583 Y135.27 E126.03283
G1 X146.156 Y134.873 E126.0561
G1 X145.421 Y134.302 E126.09325
G1 X144.637 Y133.8 E126.13041
G1 X143.813 Y133.372 E126.16747
G1 X142.952 Y133.016 E126.20465
G1 X142.899 Y132.999 E126.20687
G1 X132.498 Y122.598 E126.79395
G1 X131.084 Y122.598 E126.85039
G1 X141.012 Y132.527 E127.41079
G1 X140.234 Y132.431 E127.44208
G1 X139.473 Y132.402 E127.47248
G1 X129.669 Y122.598 E128.02586
G1 X128.255 Y122.598 E128.08229
G1 X138.057 Y132.4 E128.63556
G1 X136.643 Y132.4 E128.692
G1 X126.841 Y122.598 E129.24526
G1 X125.427 Y122.598 E129.3017
G1 X135.229 Y132.4 E129.85497
G1 X133.815 Y132.4 E129.9114
G1 X124.013 Y122.598 E130.46467
G1 X122.598 Y122.598 E130.52115
G1 X132.4 Y132.4 E131.07441
G1 X130.986 Y132.4 E131.13085
G1 X121.184 Y122.598 E131.68412
G1 X119.77 Y122.598 E131.74055
G1 X129.572 Y132.4 E132.29382
G1 X128.158 Y132.4 E132.35025
G1 X118.356 Y122.598 E132.90352
G1 X116.942 Y122.598 E132.95996
G1 X126.743 Y132.4 E133.5132
G1 X125.329 Y132.4 E133.56963
G1 X115.527 Y122.598 E134.1229
G1 X114.113 Y122.598 E134.17934
G1 X123.915 Y132.4 E134.7326
G1 X122.501 Y132.4 E134.78904
G1 X112.699 Y122.598 E135.34231
G1 X111.285 Y122.598 E135.39874
G1 X121.087 Y132.4 E135.95201
G1 X119.672 Y132.4 E136.00848
G1 X109.87 Y122.598 E136.56175
G1 X108.456 Y122.598 E136.61819
G1 X118.258 Y132.4 E137.17145
G1 X116.844 Y132.4 E137.22789
G1 X107.042 Y122.598 E137.78116
G1 X106.665 Y122.598 E137.7962
G1 X106.53 Y122.603 E137.8016
G1 X106.364 Y122.622 E137.80826
G1 X106.322 Y122.629 E137.80996
G1 X106.082 Y122.699 E137.81994
G1 X105.817 Y122.788 E137.8311
G1 X115.43 Y132.4 E138.37367
G1 X114.016 Y132.4 E138.43011
G1 X104.757 Y123.141 E138.95272
G1 X103.696 Y123.495 E138.99737
G1 X112.601 Y132.4 E139.5
G1 X111.187 Y132.4 E139.55644
G1 X102.636 Y123.849 E140.03909
G1 X101.575 Y124.203 E140.08374
G1 X109.773 Y132.4 E140.54644
G1 X108.359 Y132.4 E140.60287
G1 X100.515 Y124.556 E141.04562
G1 X100.023 Y124.72 E141.06632
G1 X99.857 Y124.783 E141.07341
G1 X99.65 Y124.884 E141.0826
G1 X99.495 Y124.951 E141.08934
G1 X106.944 Y132.4 E141.50979
G1 X105.53 Y132.4 E141.56623
G1 X98.49 Y125.36 E141.9636
G1 X97.793 Y125.581 E141.99278
G1 X97.497 Y125.647 E142.00489
G1 X97.499 Y125.656 E142.00525
G1 X97.394 Y125.678 E142.00954
G1 X104.116 Y132.4 E142.38895
G1 X102.702 Y132.4 E142.44539
G1 X96.272 Y125.971 E142.8083
G1 X95.211 Y126.324 E142.85293
G1 X101.288 Y132.4 E143.19591
G1 X99.873 Y132.4 E143.25239
G1 X94.151 Y126.678 E143.57536
G1 X93.09 Y127.031 E143.61999
G1 X98.459 Y132.4 E143.92304
G1 X97.045 Y132.4 E143.97948
G1 X92.029 Y127.385 E144.26257
G1 X90.969 Y127.739 E144.30718
G1 X95.631 Y132.4 E144.57029
G1 X94.217 Y132.4 E144.62673
G1 X89.909 Y128.093 E144.86986
G1 X88.848 Y128.446 E144.91449
G1 X92.802 Y132.4 E145.13767
G1 X91.388 Y132.4 E145.19411
G1 X87.788 Y128.8 E145.39731
G1 X86.875 Y129.104 E145.43571
G1 X86.829 Y129.117 E145.43762
G1 X86.832 Y129.125 E145.43796
G1 X86.728 Y129.155 E145.44228
G1 X89.974 Y132.4 E145.62547
G1 X88.56 Y132.4 E145.68191
G1 X85.695 Y129.536 E145.84359
G1 X85.577 Y129.63 E145.84961
G1 X85.548 Y129.656 E145.85117
G1 X85.225 Y129.981 E145.86946
G1 X85.173 Y130.078 E145.87385
G1 X85.088 Y130.317 E145.88397
G1 X85.081 Y130.336 E145.88478
G1 X87.145 Y132.4 E146.00128
G1 X86.708 Y132.4 E146.01873
G1 X86.426 Y132.388 E146.02999
G1 X86.349 Y132.371 E146.03314
G1 X86.181 Y132.307 E146.04031
G1 X85.959 Y132.225 E146.04976
G1 X85.818 Y132.162 E146.05592
G1 X85.579 Y131.97 E146.06816
G1 X85.457 Y131.863 E146.07464
G1 X85.288 Y131.701 E146.08398
G1 X85.219 Y131.611 E146.08851
G1 X85.052 Y131.171 E146.10729
G1 X84.987 Y130.92 E146.11764
G1 X84.978 Y130.83 E146.12125
G1 X84.993 Y130.678 E146.12734
G1 X85.017 Y130.548 E146.13262
G0 F7200 X140.202 Y132.892
G0 X141.075 Y132.999
G0 X141.944 Y133.187
G0 X142.766 Y133.456
G0 X146.837 Y135.504
G1 F900 X147 Y135.686 E146.14237
G1 X148.647 Y137.334 E146.23536
G1 X148.117 Y136.898 E146.26275
G1 X147.879 Y136.684 E146.27553
G1 X147.658 Y136.439 E146.2887
G1 X147.452 Y136.19 E146.3016
G0 F7200 X162.293 Y115.623
G1 F900 X162.317 Y115.635 E146.30267
G1 X164.033 Y116.552 E146.38032
G1 X164.27 Y116.694 E146.39135
G1 X164.528 Y116.886 E146.40419
G1 X166.009 Y118.101 E146.48064
G1 X166.248 Y118.316 E146.49347
G1 X166.459 Y118.551 E146.50608
G1 X167.67 Y120.027 E146.58228
G1 X167.869 Y120.295 E146.5956
G1 X168.01 Y120.531 E146.60657
G1 X168.925 Y122.243 E146.68405
G0 F600 X168.925 Y122.243 Z0.56
G0 F7200 X157.386 Y114.327
;TIME_ELAPSED:142.137062
;LAYER:-8
;TYPE:SUPPORT-INTERFACE
G1 F1200 X156.742 Y114.327 E146.69262
G1 X156.002 Y114.4 E146.70251
G1 X158.127 Y114.4 E146.73078
G1 X159.303 Y114.516 E146.7465
G1 X159.934 Y114.638 E146.75505
G1 X160.469 Y114.8 E146.76249
G1 X153.66 Y114.8 E146.85308
G1 X152.342 Y115.2 E146.8714
G1 X161.787 Y115.2 E146.99706
G1 X161.823 Y115.211 E146.99756
G1 X162.414 Y115.458 E147.00608
G1 X162.68 Y115.6 E147.01009
G1 X151.449 Y115.6 E147.15951
G1 X150.702 Y116 E147.17078
G1 X163.427 Y116 E147.34008
G1 X164.12 Y116.371 E147.35054
G1 X164.164 Y116.4 E147.35124
G1 X149.965 Y116.4 E147.54014
G1 X149.487 Y116.718 E147.54778
G1 X149.388 Y116.8 E147.54949
G1 X164.741 Y116.8 E147.75375
G1 X165.228 Y117.2 E147.76213
G1 X148.901 Y117.2 E147.97935
G1 X148.413 Y117.6 E147.98774
G1 X165.716 Y117.6 E148.21794
G1 X166.145 Y117.953 E148.22533
G1 X166.192 Y118 E148.22622
G1 X147.931 Y118 E148.46916
G1 X147.737 Y118.174 E148.47263
G1 X147.544 Y118.4 E148.47658
G1 X166.592 Y118.4 E148.73
G1 X166.61 Y118.418 E148.73034
G1 X166.924 Y118.8 E148.73692
