;FLAVOR:Marlin
;TIME:13210
;Filament used: 5.44267m
;Layer height: 0.1
;MINX:81.003
;MINY:43.429
;MINZ:0.15
;MAXX:206.947
;MAXY:158.844
;MAXZ:63.85
;Generated with Cura_SteamEngine 4.10.0
M104 S200
M105
M109 S200
M82 ;absolute extrusion mode
G28 
G1 Z15 F300
M107
G90
M82
M104 S215
M140 S55
G92 E0
M109 S215
M107
G0 X10 Y20 F6000
G1 Z0.8
G1 F300 X200 E40
G1 F1200 Z2
G92 E0
G28
G92 E0
G92 E0
G1 F2100 E-0.8
;LAYER_COUNT:639
;LAYER:0
M107
G0 F3600 X134.218 Y56.515 Z0.15
;TYPE:SKIRT
G1 F2100 E0
G1 F1800 X134.508 Y55.842 E0.01828
G1 X134.76 Y55.371 E0.03161
G1 X135.148 Y54.77 E0.04945
G1 X136.586 Y52.619 E0.11399
G1 X136.997 Y52.024 E0.13203
G1 X137.336 Y51.612 E0.14534
G1 X137.832 Y51.102 E0.16309
G1 X139.635 Y49.3 E0.22668
G1 X140.158 Y48.791 E0.24488
G1 X140.571 Y48.451 E0.25823
G1 X141.172 Y48.037 E0.27643
G1 X143.328 Y46.596 E0.34112
G1 X143.904 Y46.223 E0.35824
G1 X144.423 Y45.948 E0.37289
G1 X145.027 Y45.689 E0.38928
G1 X147.391 Y44.709 E0.45312
G1 X148.086 Y44.432 E0.47178
G1 X148.595 Y44.277 E0.48505
G1 X149.288 Y44.128 E0.50274
G1 X151.871 Y43.614 E0.56843
G1 X152.547 Y43.491 E0.58557
G1 X153.073 Y43.439 E0.59876
G1 X153.75 Y43.429 E0.61565
G1 X156.379 Y43.429 E0.68123
G1 X157.089 Y43.44 E0.69894
G1 X157.61 Y43.491 E0.712
G1 X158.276 Y43.613 E0.72889
G1 X160.853 Y44.126 E0.79443
G1 X161.548 Y44.275 E0.81216
G1 X162.052 Y44.428 E0.8253
G1 X162.754 Y44.705 E0.84413
G1 X165.076 Y45.668 E0.90684
G1 X165.761 Y45.962 E0.92543
G1 X166.237 Y46.216 E0.93889
G1 X166.834 Y46.603 E0.95664
G1 X168.992 Y48.045 E1.02138
G1 X169.586 Y48.456 E1.0394
G1 X169.991 Y48.788 E1.05246
G1 X170.465 Y49.247 E1.06892
G1 X172.355 Y51.138 E1.13561
G1 X172.83 Y51.629 E1.15265
G1 X173.162 Y52.034 E1.16572
G1 X173.577 Y52.634 E1.18392
G1 X175.018 Y54.791 E1.24863
G1 X175.399 Y55.382 E1.26617
G1 X175.648 Y55.851 E1.27941
G1 X175.926 Y56.496 E1.29693
G1 X176.901 Y58.851 E1.36051
G1 X177.176 Y59.541 E1.37904
G1 X177.332 Y60.055 E1.39244
G1 X177.483 Y60.763 E1.4105
G1 X177.997 Y63.344 E1.47615
G1 X178.139 Y64.117 E1.49575
G1 X178.562 Y66.613 E1.5589
G1 X179.102 Y69.332 E1.62805
G1 X179.698 Y71.938 E1.69474
G1 X180.386 Y74.61 E1.76357
G1 X181.155 Y77.274 E1.83273
G1 X181.984 Y79.869 E1.90069
G1 X182.88 Y82.422 E1.96818
G1 X183.869 Y85.006 E2.0372
G1 X184.922 Y87.536 E2.10556
G1 X186.052 Y90.051 E2.17434
G1 X187.233 Y92.492 E2.24198
G1 X188.488 Y94.91 E2.30994
G1 X189.838 Y97.338 E2.37924
G1 X191.216 Y99.662 E2.44664
G1 X192.682 Y101.979 E2.51503
G1 X194.215 Y104.259 E2.58357
G1 X195.798 Y106.475 E2.6515
G1 X197.466 Y108.675 E2.72037
G1 X199.179 Y110.807 E2.78859
G1 X200.941 Y112.877 E2.8564
G1 X201.116 Y113.073 E2.86296
G1 X201.724 Y113.774 E2.8861
G1 X201.946 Y114.061 E2.89516
G1 X202.356 Y114.659 E2.91324
G1 X203.782 Y116.793 E2.97727
G1 X204.164 Y117.384 E2.99482
G1 X204.416 Y117.855 E3.00815
G1 X204.676 Y118.46 E3.02457
G1 X205.663 Y120.841 E3.08887
G1 X205.944 Y121.546 E3.1078
G1 X206.1 Y122.06 E3.1212
G1 X206.251 Y122.769 E3.13928
G1 X206.763 Y125.343 E3.20475
G1 X206.88 Y125.974 E3.22076
G1 X206.94 Y126.6 E3.23644
G1 X206.947 Y127.167 E3.25059
G1 X206.947 Y129.841 E3.31729
G1 X206.936 Y130.551 E3.335
G1 X206.884 Y131.075 E3.34814
G1 X206.761 Y131.75 E3.36526
G1 X206.247 Y134.333 E3.43095
G1 X206.094 Y135.04 E3.449
G1 X205.937 Y135.551 E3.46233
G1 X205.68 Y136.193 E3.47958
G1 X204.701 Y138.556 E3.54339
G1 X204.411 Y139.229 E3.56167
G1 X204.159 Y139.7 E3.57499
G1 X203.771 Y140.301 E3.59284
G1 X202.331 Y142.454 E3.65745
G1 X201.915 Y143.055 E3.67568
G1 X201.573 Y143.47 E3.6891
G1 X201.086 Y143.969 E3.70649
G1 X199.285 Y145.769 E3.77001
G1 X198.763 Y146.278 E3.78819
G1 X198.346 Y146.621 E3.80166
G1 X197.746 Y147.034 E3.81983
G1 X195.59 Y148.475 E3.88452
G1 X195.014 Y148.848 E3.90164
G1 X194.496 Y149.123 E3.91627
G1 X193.893 Y149.382 E3.93264
G1 X191.532 Y150.36 E3.99639
G1 X190.831 Y150.639 E4.01521
G1 X190.324 Y150.794 E4.02843
G1 X189.631 Y150.943 E4.04612
G1 X187.048 Y151.457 E4.11181
G1 X186.372 Y151.58 E4.12895
G1 X185.846 Y151.632 E4.14214
G1 X185.169 Y151.642 E4.15903
G1 X182.54 Y151.642 E4.22461
G1 X181.83 Y151.631 E4.24232
G1 X181.309 Y151.58 E4.25538
G1 X180.643 Y151.458 E4.27227
G1 X178.067 Y150.945 E4.33779
G1 X177.274 Y150.774 E4.35802
G1 X177.055 Y150.721 E4.36365
G1 X174.386 Y150.11 E4.43195
G1 X171.709 Y149.577 E4.50004
G1 X168.997 Y149.116 E4.56866
G1 X166.277 Y148.733 E4.63718
G1 X163.57 Y148.429 E4.70513
G1 X160.826 Y148.199 E4.77382
G1 X158.113 Y148.049 E4.8416
G1 X155.361 Y147.975 E4.91027
G1 X152.644 Y147.979 E4.97805
G1 X149.892 Y148.061 E5.04673
G1 X147.139 Y148.221 E5.11552
G1 X144.436 Y148.454 E5.18319
G1 X141.7 Y148.768 E5.25189
G1 X138.999 Y149.157 E5.31996
G1 X136.333 Y149.617 E5.38745
G1 X133.605 Y150.169 E5.45688
G1 X130.989 Y150.773 E5.52385
G1 X128.298 Y151.478 E5.59324
G1 X125.657 Y152.25 E5.66188
G1 X123.086 Y153.08 E5.72927
G1 X120.494 Y154 E5.79788
G1 X117.916 Y154.997 E5.86683
G1 X115.897 Y155.837 E5.92138
G1 X114.12 Y156.601 E5.96963
G1 X111.786 Y157.567 E6.03264
G1 X111.094 Y157.842 E6.05122
G1 X110.605 Y157.993 E6.06399
G1 X109.918 Y158.14 E6.08151
G1 X107.297 Y158.661 E6.14817
G1 X106.654 Y158.779 E6.16448
G1 X106.044 Y158.837 E6.17976
G1 X105.479 Y158.844 E6.19386
G1 X102.804 Y158.844 E6.26059
G1 X102.094 Y158.833 E6.2783
G1 X101.57 Y158.781 E6.29144
G1 X100.895 Y158.658 E6.30855
G1 X98.315 Y158.144 E6.37417
G1 X97.628 Y157.996 E6.3917
G1 X97.126 Y157.844 E6.40479
G1 X96.452 Y157.577 E6.42287
G1 X94.092 Y156.599 E6.4866
G1 X93.417 Y156.309 E6.50492
G1 X92.938 Y156.054 E6.51846
G1 X92.344 Y155.668 E6.53613
G1 X90.193 Y154.23 E6.60067
G1 X89.598 Y153.819 E6.61871
G1 X89.186 Y153.48 E6.63202
G1 X88.676 Y152.984 E6.64977
G1 X86.867 Y151.173 E6.71362
G1 X86.341 Y150.629 E6.7325
G1 X86.003 Y150.216 E6.74581
G1 X85.619 Y149.657 E6.76273
G1 X84.175 Y147.495 E6.82758
G1 X83.795 Y146.909 E6.845
G1 X83.529 Y146.411 E6.85909
G1 X83.245 Y145.746 E6.87713
G1 X82.253 Y143.352 E6.94177
G1 X82.003 Y142.72 E6.95872
G1 X81.836 Y142.162 E6.97325
G1 X81.698 Y141.506 E6.98997
G1 X81.188 Y138.945 E7.05511
G1 X81.065 Y138.269 E7.07225
G1 X81.013 Y137.743 E7.08544
G1 X81.003 Y137.066 E7.10233
G1 X81.003 Y134.437 E7.16791
G1 X81.014 Y133.727 E7.18562
G1 X81.065 Y133.206 E7.19868
G1 X81.187 Y132.54 E7.21557
G1 X81.701 Y129.959 E7.28122
G1 X81.854 Y129.25 E7.29931
G1 X82.011 Y128.737 E7.31269
G1 X82.292 Y128.035 E7.33156
G1 X83.24 Y125.747 E7.39334
G1 X83.543 Y125.044 E7.41243
G1 X83.796 Y124.572 E7.42579
G1 X84.192 Y123.961 E7.44395
G1 X85.618 Y121.826 E7.508
G1 X86.028 Y121.233 E7.52598
G1 X86.365 Y120.823 E7.53922
G1 X86.87 Y120.303 E7.5573
G1 X88.681 Y118.493 E7.62117
G1 X89.181 Y118.006 E7.63858
G1 X89.625 Y117.642 E7.65291
G1 X90.229 Y117.226 E7.6712
G1 X92.808 Y115.503 E7.74857
G1 X92.897 Y115.437 E7.75133
G1 X94.312 Y114.49 E7.79381
G1 X96.542 Y112.906 E7.86204
G1 X98.727 Y111.258 E7.93031
G1 X100.878 Y109.54 E7.99898
G1 X102.955 Y107.78 E8.06689
G1 X104.997 Y105.949 E8.13531
G1 X106.994 Y104.055 E8.20396
G1 X108.915 Y102.124 E8.27191
G1 X110.794 Y100.13 E8.34026
G1 X112.609 Y98.087 E8.40842
G1 X114.357 Y96.007 E8.4762
G1 X116.08 Y93.832 E8.54542
G1 X117.71 Y91.651 E8.61334
G1 X119.292 Y89.405 E8.68187
G1 X120.808 Y87.118 E8.75031
G1 X122.238 Y84.82 E8.81783
G1 X123.63 Y82.439 E8.88663
G1 X124.94 Y80.044 E8.95472
G1 X126.186 Y77.604 E9.02307
G1 X127.364 Y75.128 E9.09147
G1 X128.468 Y72.624 E9.15973
G1 X129.514 Y70.067 E9.22865
G1 X130.462 Y67.535 E9.29609
G1 X131.352 Y64.941 E9.3645
G1 X132.183 Y62.279 E9.43406
G1 X132.734 Y60.347 E9.48418
G1 X132.87 Y59.855 E9.49691
G1 X132.981 Y59.524 E9.50562
G1 X133.239 Y58.878 E9.52297
G1 X134.218 Y56.515 E9.58678
G1 F2100 E8.78678
;MESH:key_cil.stl(1)
G0 F3600 X136.56 Y57.486
G0 X137.747 Y57.977
G0 X156.97 Y85.738
G0 X156.979 Y85.837
;TYPE:WALL-INNER
G1 F2100 E9.58678
G1 F1800 X153.172 Y85.837 E9.68174
G1 X149.451 Y85.096 E9.77639
G1 X145.929 Y83.637 E9.87148
G1 X142.769 Y81.526 E9.96628
G1 X140.082 Y78.84 E10.06105
G1 X137.971 Y75.68 E10.15585
G1 X136.513 Y72.158 E10.25094
G1 X135.772 Y68.436 E10.34561
G1 X135.772 Y64.63 E10.44055
G1 X136.513 Y60.908 E10.53521
G1 X137.971 Y57.386 E10.6303
G1 X140.082 Y54.226 E10.7251
G1 X142.769 Y51.54 E10.81987
G1 X145.929 Y49.429 E10.91467
G1 X149.451 Y47.97 E11.00977
G1 X153.172 Y47.229 E11.10441
G1 X156.979 Y47.229 E11.19938
G1 X160.7 Y47.97 E11.29402
G1 X164.223 Y49.429 E11.38914
G1 X167.383 Y51.54 E11.48394
G1 X170.069 Y54.226 E11.57869
G1 X172.18 Y57.386 E11.67349
G1 X173.638 Y60.908 E11.76858
G1 X174.379 Y64.63 E11.86325
G1 X174.379 Y68.436 E11.95819
G1 X173.638 Y72.158 E12.05285
G1 X172.18 Y75.68 E12.14794
G1 X170.069 Y78.84 E12.24274
G1 X167.383 Y81.526 E12.3375
G1 X164.223 Y83.637 E12.43229
G1 X160.7 Y85.096 E12.52741
G1 X156.979 Y85.837 E12.62206
G0 F3600 X157.017 Y86.237
;TYPE:WALL-OUTER
G1 F1800 X153.134 Y86.237 E12.71892
G1 X149.331 Y85.48 E12.81565
G1 X145.74 Y83.992 E12.91261
G1 X142.514 Y81.837 E13.00939
G1 X139.771 Y79.095 E13.10613
G1 X137.616 Y75.869 E13.20291
G1 X136.129 Y72.278 E13.29987
G1 X135.372 Y68.474 E13.39662
G1 X135.372 Y64.592 E13.49345
G1 X136.129 Y60.788 E13.59021
G1 X137.616 Y57.197 E13.68716
G1 X139.771 Y53.971 E13.78394
G1 X142.514 Y51.229 E13.88069
G1 X145.74 Y49.074 E13.97746
G1 X149.331 Y47.586 E14.07443
G1 X153.134 Y46.829 E14.17115
G1 X157.017 Y46.829 E14.26801
G1 X160.82 Y47.586 E14.36474
G1 X164.412 Y49.074 E14.46173
G1 X167.638 Y51.229 E14.55851
G1 X170.38 Y53.971 E14.65524
G1 X172.535 Y57.197 E14.75201
G1 X174.022 Y60.788 E14.84897
G1 X174.779 Y64.592 E14.94572
G1 X174.779 Y68.474 E15.04256
G1 X174.022 Y72.278 E15.13931
G1 X172.535 Y75.869 E15.23626
G1 X170.38 Y79.095 E15.33304
G1 X167.638 Y81.837 E15.42977
G1 X164.412 Y83.992 E15.52655
G1 X160.82 Y85.48 E15.62353
G1 X157.017 Y86.237 E15.72026
G0 F3600 X156.817 Y86.237
G0 X156.943 Y85.447
;TYPE:SKIN
G1 F1800 X153.208 Y85.447 E15.81343
G1 X149.572 Y84.723 E15.90591
G1 X146.11 Y83.289 E15.99939
G1 X143.013 Y81.22 E16.0923
G1 X140.388 Y78.596 E16.18488
G1 X138.318 Y75.498 E16.27783
G1 X136.886 Y72.039 E16.37121
G1 X136.162 Y68.4 E16.46377
G1 X136.162 Y64.666 E16.55691
G1 X136.886 Y61.027 E16.64947
G1 X138.318 Y57.568 E16.74285
G1 X140.388 Y54.47 E16.8358
G1 X143.013 Y51.846 E16.92838
G1 X146.11 Y49.777 E17.02129
G1 X149.572 Y48.343 E17.11477
G1 X153.208 Y47.619 E17.20725
G1 X156.943 Y47.619 E17.30042
G1 X160.579 Y48.343 E17.3929
G1 X164.042 Y49.777 E17.4864
G1 X167.139 Y51.846 E17.57931
G1 X169.763 Y54.47 E17.67188
G1 X171.833 Y57.568 E17.76482
G1 X173.265 Y61.027 E17.85821
G1 X173.989 Y64.666 E17.95076
G1 X173.989 Y68.4 E18.04391
G1 X173.265 Y72.039 E18.13646
G1 X171.833 Y75.498 E18.22985
G1 X169.763 Y78.596 E18.32279
G1 X167.139 Y81.22 E18.41536
G1 X164.042 Y83.289 E18.50827
G1 X160.579 Y84.723 E18.60177
G1 X156.943 Y85.447 E18.69425
G0 F3600 X140.162 Y77.937
G1 F1800 X143.665 Y81.44 E18.81782
G1 X143.735 Y81.51
G0 F3600 X145.369 Y82.578
G1 F1800 X139.024 Y76.233 E19.04166
G1 X138.954 Y76.163
G0 F3600 X138.269 Y74.913
G1 F1800 X146.691 Y83.334 E19.33875
G1 X146.761 Y83.404
G0 F3600 X147.656 Y83.734
G1 F1800 X137.87 Y73.947 E19.684
G1 X137.8 Y73.877
G0 F3600 X137.47 Y72.982
G1 F1800 X148.622 Y84.134 E20.07742
G1 X148.692 Y84.204
G0 F3600 X149.587 Y84.533
G1 F1800 X137.071 Y72.017 E20.51895
G0 F3600 X136.922 Y71.302
G1 F1800 X150.304 Y84.685 E20.99105
G0 F3600 X151.011 Y84.825
G1 F1800 X136.781 Y70.596 E21.49304
G0 F3600 X136.641 Y69.89
G1 F1800 X151.717 Y84.966 E22.02489
G0 F3600 X152.423 Y85.107
G1 F1800 X136.5 Y69.184 E22.58661
G0 F3600 X136.359 Y68.477
G1 F1800 X153.13 Y85.248 E23.17825
G0 F3600 X153.715 Y85.267
G1 F1800 X136.341 Y67.893 E23.79117
G0 F3600 X136.341 Y67.327
G1 F1800 X154.28 Y85.267 E24.42403
G0 F3600 X154.846 Y85.267
G1 F1800 X136.341 Y66.762 E25.07685
G0 F3600 X136.341 Y66.196
G1 F1800 X155.412 Y85.267 E25.74963
G0 F3600 X155.977 Y85.267
G1 F1800 X136.341 Y65.63 E26.44236
G0 F3600 X136.341 Y65.065
G1 F1800 X156.543 Y85.267 E27.15504
G0 F3600 X157.078 Y85.236
G1 F1800 X136.371 Y64.529 E27.88553
G0 F3600 X136.465 Y64.057
G1 F1800 X157.549 Y85.142 E28.62935
G0 F3600 X158.021 Y85.047
G1 F1800 X136.559 Y63.585 E29.38648
G0 F3600 X136.653 Y63.114
G1 F1800 X158.493 Y84.953 E30.15692
G0 F3600 X158.965 Y84.86
G1 F1800 X136.747 Y62.642 E30.94072
G0 F3600 X136.84 Y62.17
G1 F1800 X159.437 Y84.766 E31.73788
G0 F3600 X159.908 Y84.672
G1 F1800 X136.934 Y61.698 E32.54835
G0 F3600 X137.028 Y61.226
G1 F1800 X160.38 Y84.578 E33.37215
G0 F3600 X160.801 Y84.434
G1 F1800 X137.172 Y60.804 E34.20575
G0 F3600 X137.337 Y60.404
G1 F1800 X161.201 Y84.268 E35.04761
G0 F3600 X161.601 Y84.102
G1 F1800 X137.503 Y60.004 E35.89774
G0 F3600 X137.668 Y59.604
G1 F1800 X162.001 Y83.937 E36.75615
G0 F3600 X162.401 Y83.771
G1 F1800 X137.834 Y59.204 E37.62281
G0 F3600 X138 Y58.804
G1 F1800 X162.802 Y83.606 E38.49777
G0 F3600 X163.201 Y83.44
G1 F1800 X138.165 Y58.404 E39.38098
G0 F3600 X138.331 Y58.003
G1 F1800 X163.601 Y83.274 E40.27247
G0 F3600 X163.995 Y83.102
G1 F1800 X138.503 Y57.61 E41.17177
G0 F3600 X138.73 Y57.272
G1 F1800 X164.334 Y82.875 E42.075
G0 F3600 X164.673 Y82.649
G1 F1800 X138.957 Y56.932 E42.98222
G0 F3600 X139.184 Y56.593
G1 F1800 X165.013 Y82.423 E43.89343
G0 F3600 X165.351 Y82.196
G1 F1800 X139.41 Y56.254 E44.80858
G0 F3600 X139.636 Y55.915
G1 F1800 X165.691 Y81.969 E45.72773
G0 F3600 X166.03 Y81.743
G1 F1800 X139.863 Y55.576 E46.65084
G0 F3600 X140.089 Y55.237
G1 F1800 X166.37 Y81.517 E47.57795
G0 F3600 X166.708 Y81.29
G1 F1800 X140.316 Y54.898 E48.509
G0 F3600 X140.548 Y54.563
G1 F1800 X167.044 Y81.06 E49.44374
G0 F3600 X167.327 Y80.777
G1 F1800 X140.83 Y54.281 E50.37847
G0 F3600 X141.113 Y53.998
G1 F1800 X167.61 Y80.494 E51.31321
G0 F3600 X167.893 Y80.212
G1 F1800 X141.396 Y53.715 E52.24796
G0 F3600 X141.679 Y53.432
G1 F1800 X168.176 Y79.929 E53.18271
G0 F3600 X168.458 Y79.646
G1 F1800 X141.962 Y53.149 E54.11745
G0 F3600 X142.245 Y52.866
G1 F1800 X168.741 Y79.363 E55.05219
G0 F3600 X169.024 Y79.08
G1 F1800 X142.527 Y52.583 E55.98694
G0 F3600 X142.81 Y52.301
G1 F1800 X169.307 Y78.797 E56.92167
G0 F3600 X169.59 Y78.515
G1 F1800 X143.093 Y52.018 E57.85643
G0 F3600 X143.426 Y51.785
G1 F1800 X169.823 Y78.182 E58.78765
G0 F3600 X170.049 Y77.843
G1 F1800 X143.766 Y51.559 E59.71487
G0 F3600 X144.104 Y51.332
G1 F1800 X170.276 Y77.503 E60.63815
G0 F3600 X170.503 Y77.165
G1 F1800 X144.444 Y51.106 E61.55745
G0 F3600 X144.783 Y50.879
G1 F1800 X170.729 Y76.825 E62.47276
G0 F3600 X170.955 Y76.486
G1 F1800 X145.122 Y50.652 E63.38411
G0 F3600 X145.461 Y50.426
G1 F1800 X171.182 Y76.146 E64.29147
G0 F3600 X171.409 Y75.808
G1 F1800 X145.801 Y50.2 E65.19486
G0 F3600 X146.139 Y49.973
G1 F1800 X171.635 Y75.468 E66.09428
G0 F3600 X171.81 Y75.078
G1 F1800 X146.53 Y49.798 E66.9861
G0 F3600 X146.93 Y49.632
G1 F1800 X171.976 Y74.678 E67.86967
G0 F3600 X172.141 Y74.278
G1 F1800 X147.33 Y49.467 E68.74494
G0 F3600 X147.73 Y49.301
G1 F1800 X172.307 Y73.877 E69.61195
G0 F3600 X172.473 Y73.478
G1 F1800 X148.131 Y49.136 E70.47068
G0 F3600 X148.53 Y48.969
G1 F1800 X172.638 Y73.078 E71.32117
G0 F3600 X172.804 Y72.677
G1 F1800 X148.93 Y48.804 E72.16337
G0 F3600 X149.331 Y48.639
G1 F1800 X172.969 Y72.277 E72.99726
G0 F3600 X173.116 Y71.859
G1 F1800 X149.749 Y48.491 E73.82162
G0 F3600 X150.221 Y48.397
G1 F1800 X173.21 Y71.387 E74.63263
G0 F3600 X173.304 Y70.915
G1 F1800 X150.692 Y48.303 E75.43033
G0 F3600 X151.164 Y48.209
G1 F1800 X173.398 Y70.443 E76.2147
G0 F3600 X173.492 Y69.971
G1 F1800 X151.636 Y48.115 E76.98573
G0 F3600 X152.107 Y48.021
G1 F1800 X173.586 Y69.5 E77.74346
G0 F3600 X173.68 Y69.028
G1 F1800 X152.579 Y47.927 E78.48785
G0 F3600 X153.051 Y47.833
G1 F1800 X173.774 Y68.556 E79.21891
G0 F3600 X173.808 Y68.025
G1 F1800 X153.582 Y47.799 E79.93244
G0 F3600 X154.147 Y47.799
G1 F1800 X173.808 Y67.459 E80.62601
G0 F3600 X173.808 Y66.893
G1 F1800 X154.713 Y47.799 E81.29962
G0 F3600 X155.279 Y47.799
G1 F1800 X173.808 Y66.328 E81.95328
G0 F3600 X173.808 Y65.762
G1 F1800 X155.844 Y47.799 E82.587
G0 F3600 X156.41 Y47.799
G1 F1800 X173.808 Y65.196 E83.20074
G0 F3600 X173.795 Y64.618
G1 F1800 X156.989 Y47.811 E83.79363
G0 F3600 X157.696 Y47.953
