;FLAVOR:Marlin
;TIME:6117
;Filament used: 3.72831m
;Layer height: 0.2
;MINX:64.8
;MINY:109.8
;MINZ:0.2
;MAXX:185.2
;MAXY:140.2
;MAXZ:24
;Generated with Cura_SteamEngine 5.2.1
M140 S60
M105
M190 S60
M104 S200
M105
M109 S200
M82 ;absolute extrusion mode
G28 
G1 Z15 F300
M107
G90
M82
M104 S215
M140 S55
G92 E0
M109 S215
M107
G0 X10 Y20 F6000
G1 Z0.8
G1 F300 X200 E40
G1 F1200 Z2
G92 E0
G28
G92 E0
G92 E0
G1 F2100 E-0.8
;LAYER_COUNT:120
;LAYER:0
M107
G1 F600 Z1.2
G0 F3600 X66.18 Y110.383 Z1.2
;TYPE:SKIRT
G1 F600 Z0.2
G1 F2100 E0
G1 F900 X66.617 Y110.128 E0.01683
G1 X67.088 Y109.944 E0.03365
G1 X67.582 Y109.838 E0.05045
G1 X68.027 Y109.801 E0.0653
G1 X181.339 Y109.8 E3.83408
G1 X182.037 Y109.81 E3.85729
G1 X182.54 Y109.857 E3.8741
G1 X183.03 Y109.983 E3.89092
G1 X183.494 Y110.185 E3.90776
G1 X183.92 Y110.457 E3.92457
G1 X184.298 Y110.792 E3.94137
G1 X184.618 Y111.183 E3.95817
G1 X184.873 Y111.62 E3.975
G1 X185.056 Y112.091 E3.9918
G1 X185.163 Y112.585 E4.00862
G1 X185.199 Y113.24 E4.03043
G1 X185.2 Y136.304 E4.79755
G1 X185.191 Y137.031 E4.82173
G1 X185.145 Y137.534 E4.83853
G1 X185.02 Y138.024 E4.85535
G1 X184.819 Y138.488 E4.87217
G1 X184.548 Y138.915 E4.88899
G1 X184.213 Y139.294 E4.90581
G1 X183.823 Y139.615 E4.92261
G1 X183.387 Y139.871 E4.93943
G1 X182.916 Y140.054 E4.95623
G1 X182.422 Y140.162 E4.97305
G1 X181.76 Y140.199 E4.9951
G1 X68.666 Y140.2 E8.75663
G1 X67.968 Y140.191 E8.77984
G1 X67.464 Y140.144 E8.79668
G1 X66.974 Y140.019 E8.8135
G1 X66.51 Y139.818 E8.83032
G1 X66.084 Y139.547 E8.84711
G1 X65.705 Y139.212 E8.86393
G1 X65.384 Y138.821 E8.88076
G1 X65.129 Y138.385 E8.89756
G1 X64.945 Y137.914 E8.91438
G1 X64.838 Y137.42 E8.93119
G1 X64.801 Y136.967 E8.94631
G1 X64.8 Y113.631 E9.72247
G1 X64.809 Y112.966 E9.74459
G1 X64.856 Y112.462 E9.76142
G1 X64.982 Y111.973 E9.77822
G1 X65.183 Y111.509 E9.79504
G1 X65.454 Y111.082 E9.81186
G1 X65.789 Y110.704 E9.82866
G1 X66.18 Y110.383 E9.84548
G1 F2100 E9.04548
G1 F600 Z1.2
;MESH:wooden hat.stl
G0 F3600 X68.2 Y113.2 Z1.2
;TYPE:WALL-OUTER
G1 F600 Z0.2
G1 F2100 E9.84548
G1 F900 X68.2 Y136.8 E10.63042
G1 X181.8 Y136.8 E14.40877
G1 X181.8 Y125 E14.80124
G1 X181.8 Y113.2 E15.19371
G1 X68.2 Y113.2 E18.97206
G0 F3600 X68.2 Y113.4
G0 X68.6 Y113.6
;TYPE:WALL-INNER
G1 F900 X68.6 Y136.4 E19.73039
G1 X181.4 Y136.4 E23.48214
G1 X181.4 Y125 E23.8613
G1 X181.4 Y113.6 E24.24047
G1 X68.6 Y113.6 E27.99221
G0 F3600 X69 Y114
G1 F900 X69 Y136 E28.72393
G1 X181 Y136 E32.44907
G1 X181 Y125 E32.81493
G1 X181 Y114 E33.18079
G1 X69 Y114 E36.90593
G0 F3600 X69.38 Y114.38
;TYPE:SKIN
G1 F900 X69.38 Y135.62 E37.61237
G1 X180.62 Y135.62 E41.31223
G1 X180.62 Y125 E41.66545
G1 X180.62 Y114.38 E42.01868
G1 X69.38 Y114.38 E45.71853
G0 F3600 X69.799 Y135.418
G1 F900 X69.58 Y135.199 E45.72883
G0 F3600 X69.58 Y134.633
G1 F900 X70.364 Y135.418 E45.76573
G0 F3600 X70.93 Y135.418
G1 F900 X69.58 Y134.068 E45.82923
G0 F3600 X69.58 Y133.502
G1 F900 X71.496 Y135.418 E45.91936
G0 F3600 X72.061 Y135.418
G1 F900 X69.58 Y132.936 E46.03608
G0 F3600 X69.58 Y132.371
G1 F900 X72.627 Y135.418 E46.1794
G0 F3600 X73.193 Y135.418
G1 F900 X69.58 Y131.805 E46.34934
G0 F3600 X69.58 Y131.239
G1 F900 X73.759 Y135.418 E46.54591
G0 F3600 X74.324 Y135.418
G1 F900 X69.58 Y130.674 E46.76906
G0 F3600 X69.58 Y130.108
G1 F900 X74.89 Y135.418 E47.01882
G0 F3600 X75.456 Y135.418
G1 F900 X69.58 Y129.542 E47.29521
G0 F3600 X69.58 Y128.976
G1 F900 X76.021 Y135.418 E47.5982
G0 F3600 X76.587 Y135.418
G1 F900 X69.58 Y128.411 E47.92779
G0 F3600 X69.58 Y127.845
G1 F900 X77.153 Y135.418 E48.284
G0 F3600 X77.718 Y135.418
G1 F900 X69.58 Y127.279 E48.66681
G0 F3600 X69.58 Y126.714
G1 F900 X78.284 Y135.418 E49.07622
G0 F3600 X78.85 Y135.418
G1 F900 X69.58 Y126.148 E49.51225
G0 F3600 X69.58 Y125.582
G1 F900 X79.415 Y135.418 E49.97488
G0 F3600 X79.981 Y135.418
G1 F900 X69.58 Y125.017 E50.46411
G0 F3600 X69.58 Y124.451
G1 F900 X80.547 Y135.418 E50.97997
G0 F3600 X81.112 Y135.418
G1 F900 X69.58 Y123.885 E51.52242
G0 F3600 X69.58 Y123.32
G1 F900 X81.678 Y135.418 E52.09147
G0 F3600 X82.244 Y135.418
G1 F900 X69.58 Y122.754 E52.68715
G0 F3600 X69.58 Y122.188
G1 F900 X82.809 Y135.418 E53.30942
G0 F3600 X83.375 Y135.418
G1 F900 X69.58 Y121.623 E53.9583
G0 F3600 X69.58 Y121.057
G1 F900 X83.941 Y135.418 E54.6338
G0 F3600 X84.507 Y135.418
G1 F900 X69.58 Y120.491 E55.33592
G0 F3600 X69.58 Y119.926
G1 F900 X85.072 Y135.418 E56.06461
G0 F3600 X85.638 Y135.418
G1 F900 X69.58 Y119.36 E56.81993
G0 F3600 X69.58 Y118.794
G1 F900 X86.204 Y135.418 E57.60187
G0 F3600 X86.769 Y135.418
G1 F900 X69.58 Y118.228 E58.41041
G0 F3600 X69.58 Y117.663
G1 F900 X87.335 Y135.418 E59.24556
G0 F3600 X87.901 Y135.418
G1 F900 X69.58 Y117.097 E60.10732
G0 F3600 X69.58 Y116.531
G1 F900 X88.466 Y135.418 E60.99568
G0 F3600 X89.032 Y135.418
G1 F900 X69.58 Y115.966 E61.91064
G0 F3600 X69.58 Y115.4
G1 F900 X89.598 Y135.418 E62.85223
G0 F3600 X90.163 Y135.418
G1 F900 X69.58 Y114.834 E63.82041
G0 F3600 X69.89 Y114.579
G1 F900 X90.729 Y135.418 E64.80062
G0 F3600 X91.295 Y135.418
G1 F900 X70.456 Y114.579 E65.78082
G0 F3600 X71.021 Y114.579
G1 F900 X91.86 Y135.418 E66.76102
G0 F3600 X92.426 Y135.418
G1 F900 X71.587 Y114.579 E67.74123
G0 F3600 X72.153 Y114.579
G1 F900 X92.992 Y135.418 E68.72143
G0 F3600 X93.558 Y135.418
G1 F900 X72.718 Y114.579 E69.70165
G0 F3600 X73.284 Y114.579
G1 F900 X94.123 Y135.418 E70.68186
G0 F3600 X94.689 Y135.418
G1 F900 X73.85 Y114.579 E71.66206
G0 F3600 X74.415 Y114.579
G1 F900 X95.255 Y135.418 E72.64229
G0 F3600 X95.82 Y135.418
G1 F900 X74.981 Y114.579 E73.62249
G0 F3600 X75.547 Y114.579
G1 F900 X96.386 Y135.418 E74.60269
G0 F3600 X96.952 Y135.418
G1 F900 X76.112 Y114.579 E75.58292
G0 F3600 X76.678 Y114.579
G1 F900 X97.517 Y135.418 E76.56312
G0 F3600 X98.083 Y135.418
G1 F900 X77.244 Y114.579 E77.54332
G0 F3600 X77.81 Y114.579
G1 F900 X98.649 Y135.418 E78.52353
G0 F3600 X99.214 Y135.418
G1 F900 X78.375 Y114.579 E79.50373
G0 F3600 X78.941 Y114.579
G1 F900 X99.78 Y135.418 E80.48393
G0 F3600 X100.346 Y135.418
G1 F900 X79.507 Y114.579 E81.46413
G0 F3600 X80.072 Y114.579
G1 F900 X100.911 Y135.418 E82.44434
G0 F3600 X101.477 Y135.418
G1 F900 X80.638 Y114.579 E83.42454
G0 F3600 X81.204 Y114.579
G1 F900 X102.043 Y135.418 E84.40474
G0 F3600 X102.608 Y135.418
G1 F900 X81.769 Y114.579 E85.38494
G0 F3600 X82.335 Y114.579
G1 F900 X103.174 Y135.418 E86.36515
G0 F3600 X103.74 Y135.418
G1 F900 X82.901 Y114.579 E87.34535
G0 F3600 X83.466 Y114.579
G1 F900 X104.306 Y135.418 E88.32558
G0 F3600 X104.871 Y135.418
G1 F900 X84.032 Y114.579 E89.30578
G0 F3600 X84.598 Y114.579
G1 F900 X105.437 Y135.418 E90.28598
G0 F3600 X106.003 Y135.418
G1 F900 X85.163 Y114.579 E91.26621
G0 F3600 X85.729 Y114.579
G1 F900 X106.568 Y135.418 E92.24641
G0 F3600 X107.134 Y135.418
G1 F900 X86.295 Y114.579 E93.22661
G0 F3600 X86.86 Y114.579
G1 F900 X107.7 Y135.418 E94.20684
G0 F3600 X108.265 Y135.418
G1 F900 X87.426 Y114.579 E95.18704
G0 F3600 X87.992 Y114.579
G1 F900 X108.831 Y135.418 E96.16724
G0 F3600 X109.397 Y135.418
G1 F900 X88.558 Y114.579 E97.14745
G0 F3600 X89.123 Y114.579
G1 F900 X109.962 Y135.418 E98.12765
G0 F3600 X110.528 Y135.418
G1 F900 X89.689 Y114.579 E99.10785
G0 F3600 X90.255 Y114.579
G1 F900 X111.094 Y135.418 E100.08805
G0 F3600 X111.659 Y135.418
G1 F900 X90.82 Y114.579 E101.06826
G0 F3600 X91.386 Y114.579
G1 F900 X112.225 Y135.418 E102.04846
G0 F3600 X112.791 Y135.418
G1 F900 X91.952 Y114.579 E103.02866
G0 F3600 X92.517 Y114.579
G1 F900 X113.356 Y135.418 E104.00886
G0 F3600 X113.922 Y135.418
G1 F900 X93.083 Y114.579 E104.98907
G0 F3600 X93.649 Y114.579
G1 F900 X114.488 Y135.418 E105.96927
G0 F3600 X115.054 Y135.418
G1 F900 X94.214 Y114.579 E106.9495
G0 F3600 X94.78 Y114.579
G1 F900 X115.619 Y135.418 E107.9297
G0 F3600 X116.185 Y135.418
G1 F900 X95.346 Y114.579 E108.9099
G0 F3600 X95.911 Y114.579
G1 F900 X116.751 Y135.418 E109.89013
G0 F3600 X117.316 Y135.418
G1 F900 X96.477 Y114.579 E110.87033
G0 F3600 X97.043 Y114.579
G1 F900 X117.882 Y135.418 E111.85053
G0 F3600 X118.448 Y135.418
G1 F900 X97.609 Y114.579 E112.83074
G0 F3600 X98.174 Y114.579
G1 F900 X119.013 Y135.418 E113.81094
G0 F3600 X119.579 Y135.418
G1 F900 X98.74 Y114.579 E114.79114
G0 F3600 X99.306 Y114.579
G1 F900 X120.145 Y135.418 E115.77134
G0 F3600 X120.71 Y135.418
G1 F900 X99.871 Y114.579 E116.75155
G0 F3600 X100.437 Y114.579
G1 F900 X121.276 Y135.418 E117.73175
G0 F3600 X121.842 Y135.418
G1 F900 X101.003 Y114.579 E118.71195
G0 F3600 X101.568 Y114.579
G1 F900 X122.407 Y135.418 E119.69215
G0 F3600 X122.973 Y135.418
G1 F900 X102.134 Y114.579 E120.67236
G0 F3600 X102.7 Y114.579
G1 F900 X123.539 Y135.418 E121.65256
G0 F3600 X124.105 Y135.418
G1 F900 X103.265 Y114.579 E122.63279
G0 F3600 X103.831 Y114.579
G1 F900 X124.67 Y135.418 E123.61299
G0 F3600 X125.237 Y135.419
G1 F900 X104.397 Y114.579 E124.59324
G0 F3600 X104.962 Y114.579
G1 F900 X125.802 Y135.419 E125.57349
G0 F3600 X126.368 Y135.419
G1 F900 X105.528 Y114.579 E126.55374
G0 F3600 X106.094 Y114.579
G1 F900 X126.934 Y135.419 E127.53399
G0 F3600 X127.499 Y135.419
G1 F900 X106.659 Y114.579 E128.51424
G0 F3600 X107.225 Y114.579
G1 F900 X128.065 Y135.419 E129.49449
G0 F3600 X128.631 Y135.419
G1 F900 X107.791 Y114.579 E130.47474
G0 F3600 X108.357 Y114.579
G1 F900 X129.196 Y135.419 E131.45496
G0 F3600 X129.762 Y135.419
G1 F900 X108.922 Y114.579 E132.43521
G0 F3600 X109.488 Y114.579
G1 F900 X130.328 Y135.419 E133.41546
G0 F3600 X130.893 Y135.419
G1 F900 X110.054 Y114.579 E134.39569
G0 F3600 X110.619 Y114.579
G1 F900 X131.459 Y135.419 E135.37594
G0 F3600 X132.025 Y135.419
G1 F900 X111.185 Y114.579 E136.35619
G0 F3600 X111.751 Y114.579
G1 F900 X132.591 Y135.419 E137.33644
G0 F3600 X133.156 Y135.419
G1 F900 X112.316 Y114.579 E138.31669
G0 F3600 X112.882 Y114.579
G1 F900 X133.722 Y135.419 E139.29694
G0 F3600 X134.288 Y135.419
G1 F900 X113.448 Y114.579 E140.27719
G0 F3600 X114.013 Y114.579
G1 F900 X134.853 Y135.419 E141.25744
G0 F3600 X135.419 Y135.419
G1 F900 X114.579 Y114.579 E142.23769
G0 F3600 X115.145 Y114.579
G1 F900 X135.985 Y135.419 E143.21794
G0 F3600 X136.55 Y135.419
G1 F900 X115.71 Y114.579 E144.19819
G0 F3600 X116.276 Y114.579
G1 F900 X137.116 Y135.419 E145.17844
G0 F3600 X137.682 Y135.419
G1 F900 X116.842 Y114.579 E146.15869
G0 F3600 X117.408 Y114.579
G1 F900 X138.247 Y135.419 E147.13891
G0 F3600 X138.813 Y135.419
G1 F900 X117.973 Y114.579 E148.11916
G0 F3600 X118.539 Y114.579
G1 F900 X139.379 Y135.419 E149.09941
G0 F3600 X139.944 Y135.419
G1 F900 X119.105 Y114.579 E150.07964
G0 F3600 X119.67 Y114.579
G1 F900 X140.51 Y135.419 E151.05989
G0 F3600 X141.076 Y135.419
G1 F900 X120.236 Y114.579 E152.04014
G0 F3600 X120.802 Y114.579
G1 F900 X141.641 Y135.419 E153.02036
G0 F3600 X142.207 Y135.419
G1 F900 X121.367 Y114.579 E154.00061
G0 F3600 X121.933 Y114.579
G1 F900 X142.773 Y135.419 E154.98086
G0 F3600 X143.339 Y135.419
G1 F900 X122.499 Y114.579 E155.96111
G0 F3600 X123.064 Y114.579
G1 F900 X143.904 Y135.419 E156.94136
G0 F3600 X144.47 Y135.419
G1 F900 X123.63 Y114.579 E157.92161
G0 F3600 X124.196 Y114.579
G1 F900 X145.036 Y135.419 E158.90186
G0 F3600 X145.601 Y135.419
G1 F900 X124.761 Y114.579 E159.88211
G0 F3600 X125.328 Y114.58
G1 F900 X146.167 Y135.419 E160.86231
G0 F3600 X146.733 Y135.419
G1 F900 X125.893 Y114.58 E161.84254
G0 F3600 X126.459 Y114.58
G1 F900 X147.298 Y135.419 E162.82274
G0 F3600 X147.864 Y135.419
G1 F900 X127.025 Y114.58 E163.80294
G0 F3600 X127.591 Y114.58
G1 F900 X148.43 Y135.419 E164.78315
G0 F3600 X148.995 Y135.419
G1 F900 X128.156 Y114.58 E165.76335
G0 F3600 X128.722 Y114.58
G1 F900 X149.561 Y135.419 E166.74355
G0 F3600 X150.127 Y135.419
G1 F900 X129.288 Y114.58 E167.72376
G0 F3600 X129.853 Y114.58
G1 F900 X150.692 Y135.419 E168.70396
G0 F3600 X151.258 Y135.419
G1 F900 X130.419 Y114.58 E169.68416
G0 F3600 X130.985 Y114.58
G1 F900 X151.824 Y135.419 E170.66436
G0 F3600 X152.389 Y135.419
G1 F900 X131.55 Y114.58 E171.64457
G0 F3600 X132.116 Y114.58
G1 F900 X152.955 Y135.419 E172.62477
G0 F3600 X153.521 Y135.419
G1 F900 X132.682 Y114.58 E173.60497
G0 F3600 X133.247 Y114.58
G1 F900 X154.087 Y135.419 E174.5852
G0 F3600 X154.652 Y135.419
G1 F900 X133.813 Y114.58 E175.5654
G0 F3600 X134.379 Y114.58
G1 F900 X155.218 Y135.419 E176.5456
G0 F3600 X155.784 Y135.419
G1 F900 X134.944 Y114.58 E177.52583
G0 F3600 X135.51 Y114.58
G1 F900 X156.349 Y135.419 E178.50603
G0 F3600 X156.915 Y135.419
G1 F900 X136.076 Y114.58 E179.48623
G0 F3600 X136.642 Y114.58
G1 F900 X157.481 Y135.419 E180.46644
G0 F3600 X158.046 Y135.419
G1 F900 X137.207 Y114.58 E181.44664
G0 F3600 X137.773 Y114.58
G1 F900 X158.612 Y135.419 E182.42684
G0 F3600 X159.178 Y135.419
G1 F900 X138.339 Y114.58 E183.40705
G0 F3600 X138.904 Y114.58
G1 F900 X159.743 Y135.419 E184.38725
G0 F3600 X160.309 Y135.419
G1 F900 X139.47 Y114.58 E185.36745
G0 F3600 X140.036 Y114.58
G1 F900 X160.875 Y135.419 E186.34765
G0 F3600 X161.44 Y135.419
G1 F900 X140.601 Y114.58 E187.32786
G0 F3600 X141.167 Y114.58
G1 F900 X162.006 Y135.419 E188.30806
G0 F3600 X162.572 Y135.419
G1 F900 X141.733 Y114.58 E189.28826
G0 F3600 X142.298 Y114.58
G1 F900 X163.138 Y135.419 E190.26849
G0 F3600 X163.703 Y135.419
G1 F900 X142.864 Y114.58 E191.24869
G0 F3600 X143.43 Y114.58
G1 F900 X164.269 Y135.419 E192.22889
G0 F3600 X164.835 Y135.419
G1 F900 X143.995 Y114.58 E193.20912
G0 F3600 X144.561 Y114.58
G1 F900 X165.4 Y135.419 E194.18932
G0 F3600 X165.966 Y135.419
G1 F900 X145.127 Y114.58 E195.16952
G0 F3600 X145.692 Y114.58
G1 F900 X166.532 Y135.419 E196.14975
G0 F3600 X167.097 Y135.419
G1 F900 X146.258 Y114.58 E197.12995
G0 F3600 X146.824 Y114.58
G1 F900 X167.663 Y135.419 E198.11016
G0 F3600 X168.229 Y135.419
G1 F900 X147.39 Y114.58 E199.09036
G0 F3600 X147.955 Y114.58
G1 F900 X168.794 Y135.419 E200.07056
G0 F3600 X169.36 Y135.419
G1 F900 X148.521 Y114.58 E201.05076
G0 F3600 X149.087 Y114.58
G1 F900 X169.926 Y135.419 E202.03097
G0 F3600 X170.491 Y135.419
G1 F900 X149.652 Y114.58 E203.01117
G0 F3600 X150.218 Y114.58
G1 F900 X171.057 Y135.419 E203.99137
G0 F3600 X171.623 Y135.419
G1 F900 X150.784 Y114.58 E204.97157
G0 F3600 X151.349 Y114.58
G1 F900 X172.188 Y135.419 E205.95178
G0 F3600 X172.754 Y135.419
G1 F900 X151.915 Y114.58 E206.93198
G0 F3600 X152.481 Y114.58
G1 F900 X173.32 Y135.419 E207.91218
G0 F3600 X173.886 Y135.419
G1 F900 X153.046 Y114.58 E208.89241
G0 F3600 X153.612 Y114.58
G1 F900 X174.451 Y135.419 E209.87261
G0 F3600 X175.017 Y135.419
G1 F900 X154.178 Y114.58 E210.85281
G0 F3600 X154.743 Y114.58
G1 F900 X175.583 Y135.419 E211.83304
G0 F3600 X176.148 Y135.419
G1 F900 X155.309 Y114.58 E212.81324
G0 F3600 X155.875 Y114.58
G1 F900 X176.714 Y135.419 E213.79345
G0 F3600 X177.28 Y135.419
G1 F900 X156.441 Y114.58 E214.77365
G0 F3600 X157.006 Y114.58
G1 F900 X177.845 Y135.419 E215.75385
G0 F3600 X178.411 Y135.419
G1 F900 X157.572 Y114.58 E216.73405
G0 F3600 X158.138 Y114.58
G1 F900 X178.977 Y135.419 E217.71426
G0 F3600 X179.542 Y135.419
G1 F900 X158.703 Y114.58 E218.69446
G0 F3600 X159.269 Y114.58
G1 F900 X180.108 Y135.419 E219.67466
G0 F3600 X180.419 Y135.164
G1 F900 X159.835 Y114.58 E220.64287
G0 F3600 X160.4 Y114.58
G1 F900 X180.419 Y134.598 E221.58448
G0 F3600 X180.419 Y134.032
G1 F900 X160.966 Y114.58 E222.49946
G0 F3600 X161.532 Y114.58
G1 F900 X180.419 Y133.467 E223.38785
G0 F3600 X180.419 Y132.901
G1 F900 X162.097 Y114.58 E224.24964
G0 F3600 X162.663 Y114.58
G1 F900 X180.419 Y132.335 E225.0848
G0 F3600 X180.419 Y131.77
G1 F900 X163.229 Y114.58 E225.89337
G0 F3600 X163.794 Y114.58
G1 F900 X180.419 Y131.204 E226.67533
G0 F3600 X180.419 Y130.638
G1 F900 X164.36 Y114.58 E227.43068
G0 F3600 X164.926 Y114.58
G1 F900 X180.419 Y130.072 E228.1594
G0 F3600 X180.419 Y129.507
G1 F900 X165.491 Y114.58 E228.86154
G0 F3600 X166.057 Y114.58
G1 F900 X180.419 Y128.941 E229.53706
G0 F3600 X180.419 Y128.375
G1 F900 X166.623 Y114.58 E230.18596
G0 F3600 X167.189 Y114.58
G1 F900 X180.419 Y127.81 E230.80826
G0 F3600 X180.419 Y127.244
G1 F900 X167.754 Y114.58 E231.40396
G0 F3600 X168.32 Y114.58
G1 F900 X180.419 Y126.678 E231.97303
G0 F3600 X180.419 Y126.113
G1 F900 X168.886 Y114.58 E232.51551
G0 F3600 X169.451 Y114.58
G1 F900 X180.419 Y125.547 E233.03139
